/* XPM */
static char *result[] = {
/* columns rows colors chars-per-pixel */
"210 135 18 1 ",
"  c #251915",
". c #2B1E19",
"X c #702A14",
"o c #432E27",
"O c #66463A",
"+ c #8A4028",
"@ c #E07922",
"# c #9F6D5B",
"$ c #EF962D",
"% c #F68C36",
"& c #FEA63E",
"* c #F5BB44",
"= c #FFC750",
"- c #BA9487",
"; c #F7EC8F",
": c #FBF193",
"> c #D9C4BD",
", c None",
/* pixels */
",,,,,,,,,,,,,>>---,,,,,,,,,,,,,,,,,,,,,,,,,>>---,,,,,,,,,,,,,,,,,,,,,,,,,>>---,,,,,,,,,,,,,,,,,,,,,,,,,>>---,,,,,,,,,,,,,,,,,,,,,,,,,>>---,,,,,,,,,,,,,,,,,,,,,,,,,>>---,,,,,,,,,,,,,,,,,,,,,,,,,>>---,,,,,,,,,,,,",
",,,,,,,,,,,,>ooooo.,,,,,,,,,,,,,,,,,,,,,,,>ooooo.,,,,,,,,,,,,,,,,,,,,,,,>ooooo.,,,,,,,,,,,,,,,,,,,,,,,>ooooo.,,,,,,,,,,,,,,,,,,,,,,,>ooooo.,,,,,,,,,,,,,,,,,,,,,,,>ooooo.,,,,,,,,,,,,,,,,,,,,,,,>ooooo.,,,,,,,,,,,",
",,,,,,,,,,,,-o,,,,o.,,,,,,,,,,,,,,,,,,,,,,-o,,,,o.,,,,,,,,,,,,,,,,,,,,,,-o,,,,o.,,,,,,,,,,,,,,,,,,,,,,-o,,,,o.,,,,,,,,,,,,,,,,,,,,,,-o,,,,o.,,,,,,,,,,,,,,,,,,,,,,-o,,,,o.,,,,,,,,,,,,,,,,,,,,,,-o,,,,o.,,,,,,,,,,",
",,,,,,,,,,,>.,,,,,Oo,,,,,,,,,,,,,,,,,,,,,>.,,,,,Oo,,,,,,,,,,,,,,,,,,,,,>.,,,,,Oo,,,,,,,,,,,,,,,,,,,,,>.,,,,,Oo,,,,,,,,,,,,,,,,,,,,,>.,,,,,Oo,,,,,,,,,,,,,,,,,,,,,>.,,,,,Oo,,,,,,,,,,,,,,,,,,,,,>.,,,,,Oo,,,,,,,,,,",
",,,,,,,,,,,>o,,,,,Oo,,,,,,,,,,,,,,,,,,,,,>o,,,,,Oo,,,,,,,,,,,,,,,,,,,,,>o,,,,,Oo,,,,,,,,,,,,,,,,,,,,,>o,,,,,Oo,,,,,,,,,,,,,,,,,,,,,>o,,,,,Oo,,,,,,,,,,,,,,,,,,,,,>o,,,,,Oo,,,,,,,,,,,,,,,,,,,,,>o,,,,,Oo,,,,,,,,,,",
",,,,,,,,,,,-o,,,,,Oo,,,,,,,,,,,,,,,,,,,,,-o,,,,,Oo,,,,,,,,,,,,,,,,,,,,,-o,,,,,Oo,,,,,,,,,,,,,,,,,,,,,-o,,,,,Oo,,,,,,,,,,,,,,,,,,,,,-o,,,,,Oo,,,,,,,,,,,,,,,,,,,,,-o,,,,,Oo,,,,,,,,,,,,,,,,,,,,,-o,,,,,Oo,,,,,,,,,,",
",,,,,,,,,,,>o,,,,,Oo,,,,,,,,,,,,,,,,,,,,,>o,,,,,Oo,,,,,,,,,,,,,,,,,,,,,>o,,,,,Oo,,,,,,,,,,,,,,,,,,,,,>o,,,,,Oo,,,,,,,,,,,,,,,,,,,,,>o,,,,,Oo,,,,,,,,,,,,,,,,,,,,,>o,,,,,Oo,,,,,,,,,,,,,,,,,,,,,>o,,,,,Oo,,,,,,,,,,",
",,,,,,,,,,>>.....o.OO,,,,,,,,,,,,,,,,,,,>>.....o.OO,,,,,,,,,,,,,,,,,,,>>.....o.OO,,,,,,,,,,,,,,,,,,,>>.....o.OO,,,,,,,,,,,,,,,,,,,>>.....o.OO,,,,,,,,,,,,,,,,,,,>>.....o.OO,,,,,,,,,,,,,,,,,,,>>.....o.OO,,,,,,,,,",
",,,,,,,,,,>>>->--OOOo,,,,,,,,,,,,,,,,,,,>>>->--OOOo,,,,,,,,,,,,,,,,,,,>>>->--OOOo,,,,,,,,,,,,,,,,,,,>>>->--OOOo,,,,,,,,,,,,,,,,,,,>>>->--OOOo,,,,,,,,,,,,,,,,,,,>>>->--OOOo,,,,,,,,,,,,,,,,,,,>>>->--OOOo,,,,,,,,,",
",,,,,,,,,,>>----OoOoo,,,,,,,,,,,,,,,,,,,>>----OoOoo,,,,,,,,,,,,,,,,,,,>>----OoOoo,,,,,,,,,,,,,,,,,,,>>----OoOoo,,,,,,,,,,,,,,,,,,,>>----OoOoo,,,,,,,,,,,,,,,,,,,>>----OoOoo,,,,,,,,,,,,,,,,,,,>>----OoOoo,,,,,,,,,",
",,,,,,,,,,>--O-Oooooo,,,,,,,,,,,,,,,,,,,>--O-Oooooo,,,,,,,,,,,,,,,,,,,>--O-Oooooo,,,,,,,,,,,,,,,,,,,>--O-Oooooo,,,,,,,,,,,,,,,,,,,>--O-Oooooo,,,,,,,,,,,,,,,,,,,>--O-Oooooo,,,,,,,,,,,,,,,,,,,>--O-Oooooo,,,,,,,,,",
",,,,,,,,,,,.........,,,,,,,,,,,,,,,,,,,,,.........,,,,,,,,,,,,,,,,,,,,,.........,,,,,,,,,,,,,,,,,,,,,.........,,,,,,,,,,,,,,,,,,,,,.........,,,,,,,,,,,,,,,,,,,,,.........,,,,,,,,,,,,,,,,,,,,,.........,,,,,,,,,,",
",,,,,,,,>-O--O-OOOoOooo,,,,,,,,,,,,,,,>-O--O-OOOoOooo,,,,,,,,,,,,,,,>-O--O-OOOoOooo,,,,,,,,,,,,,,,>-O--O-OOOoOooo,,,,,,,,,,,,,,,>-O--O-OOOoOooo,,,,,,,,,,,,,,,>-O--O-OOOoOooo,,,,,,,,,,,,,,,>-O--O-OOOoOooo,,,,,,,",
",,,,,,,,>---O-OOooOoooo,,,,,,,,,,,,,,,>---O-OOooOoooo,,,,,,,,,,,,,,,>---O-OOooOoooo,,,,,,,,,,,,,,,>---O-OOooOoooo,,,,,,,,,,,,,,,>---O-OOooOoooo,,,,,,,,,,,,,,,>---O-OOooOoooo,,,,,,,,,,,,,,,>---O-OOooOoooo,,,,,,,",
",,,,,,,,ooooooooooooooo,,,,,,,,,,,,,,,ooooooooooooooo,,,,,,,,,,,,,,,ooooooooooooooo,,,,,,,,,,,,,,,ooooooooooooooo,,,,,,,,,,,,,,,ooooooooooooooo,,,,,,,,,,,,,,,ooooooooooooooo,,,,,,,,,,,,,,,ooooooooooooooo,,,,,,,",
",,,,,,,>+++++- ++++++++o,,,,,,,,,,,,,>XXXXX- XXXXXXXXo,,,,,,,,,,,,,>XXXXX- XXXXXXXXo,,,,,,,,,,,,,>+++++- ++++++++o,,,,,,,,,,,,,>XXXXX- XXXXXXXXo,,,,,,,,,,,,,>XXXXX- XXXXXXXXo,,,,,,,,,,,,,>XXXXX- XXXXXXXXo,,,,,,",
",,,,,,>+%%%%%- %%%%%%%%+o,,,,,,,,,,,>X@@@@@- @@@@@@@@Xo,,,,,,,,,,,>X@@@@@- @@@@@@@@Xo,,,,,,,,,,,>+%%%%%- %%%%%%%%+o,,,,,,,,,,,>X@@@@@- @@@@@@@@Xo,,,,,,,,,,,>X@@@@@- @@@@@@@@Xo,,,,,,,,,,,>X@@@@@- @@@@@@@@Xo,,,,,",
",,,,,>+%%%%%%- %%%%%%%%%+o,,,,,,,,,>X@@@@@@- @@@@@@@@@Xo,,,,,,,,,>X@@@@@@- @@@@@@@@@Xo,,,,,,,,,>+%%%%%%- %%%%%%%%%+o,,,,,,,,,>X@@@@@@- @@@@@@@@@Xo,,,,,,,,,>X@@@@@@- @@@@@@@@@Xo,,,,,,,,,>X@@@@@@- @@@@@@@@@Xo,,,,",
",,,,>+%%%%%&&- &&&%%%%%%%+o,,,,,,,>X@@@@@@@- @@@@@@@@@@Xo,,,,,,,>X@@@@@@@- @@@@@@@@@@Xo,,,,,,,>+%%%%%&&- &&&%%%%%%%+o,,,,,,,>X@@@@@@@- @@@@@@@@@@Xo,,,,,,,>X@@@@@$$- $$$@@@@@@@Xo,,,,,,,>X@@@@@@@- @@@@@@@@@@Xo,,,",
",,,>+%%%%&&&- &&&&&&%%%%%+o,,,,,,>X@@@@@@@- @@@@@@@@@@@Xo,,,,,,>X@@@@@@@- $$@@@@@@@@@Xo,,,,,,>+%%%%&&&- &&&&&&%%%%%+o,,,,,,>X@@@@@@@- $$@@@@@@@@@Xo,,,,,,>X@@@@$$$- $$$$$$@@@@@Xo,,,,,,>X@@@@@@@- $$@@@@@@@@@Xo,,,",
",,>+%%%%&&&&- &&&&&&&%%%%%+o,,,,>X@@@@@@$$- $$$@@@@@@@@@Xo,,,,>X@@@@@@$$- $$$$@@@@@@@@Xo,,,,>+%%%%&&&&- &&&&&&&%%%%%+o,,,,>X@@@@@@$$- $$$$@@@@@@@@Xo,,,,>X@@@@$$$$- $$$$$$$@@@@@Xo,,,,>X@@@@@@$$- $$$$@@@@@@@@Xo,,",
",,>+%%%&&&&=- ===&&&&&%%%%+o,,,,>X@@@@@$$$- $$$$$@@@@@@@Xo,,,,>X@@@@$$$$- $$$$$$@@@@@@Xo,,,,>+%%%&&&&=- ===&&&&&%%%%+o,,,,>X@@@@$$$$- $$$$$$@@@@@@Xo,,,,>X@@@$$$$*- ***$$$$$@@@@Xo,,,,>X@@@@$$$$- $$$$$$@@@@@@Xo,,",
",>+%%%&&&===- =====&&&&%%%%+o,,>X@@@@$$$$$- $$$$$$@@@@@@@Xo,,>X@@@@$$$**- **$$$$$@@@@@@Xo,,>+%%%&&&===- =====&&&&%%%%+o,,>X@@@@$$$**- **$$$$$@@@@@@Xo,,>X@@@$$$***- *****$$$$@@@@Xo,,>X@@@@$$$**- **$$$$$@@@@@@Xo,",
",>+%%&&&====- ======&&&%%%%+o,,>X@@@$$$$**- $$$$$$$@@@@@@Xo,,>X@@@$$$***- ***$$$$$@@@@@Xo,,>+%%&&&====- ======&&&%%%%+o,,>X@@@$$$***- ***$$$$$@@@@@Xo,,>X@@$$$****- ******$$$@@@@Xo,,>X@@@$$$***- ***$$$$$@@@@@Xo,",
">+%%&&&====- ========&&&%%%%+o>X@@@@$$$**- ***$$$$$$@@@@@@Xo>X@@@@$$***- ******$$$$@@@@@Xo>+%%&&&====- ========&&&%%%%+o>X@@@@$$***- ******$$$$@@@@@Xo>X@@$$$****- ********$$$@@@@Xo>X@@@@$$***- ******$$$$@@@@@Xo",
">+%%&&&====- :========&&&%%%+o>X@@@@$$***- ****$$$$$@@@@@@Xo>X@@@$$****- *******$$$$@@@@Xo>+%%&&&====- :========&&&%%%+o>X@@@$$****- *******$$$$@@@@Xo>X@@$$$****- ;********$$$@@@Xo>X@@@$$****- *******$$$$@@@@Xo",
">-%&&&====:- :::======&&&%%%+o>-@@@$$****- ;*****$$$$@@@@@Xo>-@@@$$****- ;;******$$$@@@@Xo>-%&&&====:- :::======&&&%%%+o>-@@@$$****- ;;******$$$@@@@Xo>-@$$$****;- ;;;******$$$@@@Xo>-@@@$$****- ;;******$$$@@@@Xo",
"> -&&&===::- ::::======&&&---o> -@@$$***;- ;;;***$$$$@@@---o> -@$$$***;- ;;;******$$$@---o> -&&&===::- ::::======&&&---o> -@$$$***;- ;;;******$$$@---o> -$$$***;;- ;;;;******$$$---o> -@$$$***;- ;;;******$$$@---o",
">+ ----=:::- :::::===-----   o>X ----**;;- ;;;;;**$-----   o>X ----**;;- ;;;;****-----   o>+ ----=:::- :::::===-----   o>X ----**;;- ;;;;****-----   o>X ----*;;;- ;;;;;***-----   o>X ----**;;- ;;;;****-----   o",
">+%    --------------     %%+o>X@    --------------     @@Xo>X@    --------------     @@Xo>+%    --------------     %%+o>X@    --------------     @@Xo>X@    --------------     @@Xo>X@    --------------     @@Xo",
">+%&&==    -         ==&&%%%+o>X@$$$*    -         $$@@@@@Xo>X@@$$*    -         *$$$@@@Xo>+%&&==    -         ==&&%%%+o>X@@$$*    -         *$$$@@@Xo>X@$$**    -         **$$@@@Xo>X@@$$*    -         *$$$@@@Xo",
",-+%&==::::- ::::::====&&%%+o,,-X@$$**;;;- ;;;;;**$$$@@@@Xo,,-X@$$**;;;- ;;;;;****$$@@@Xo,,-+%&==::::- ::::::====&&%%+o,,-X@$$**;;;- ;;;;;****$$@@@Xo,,-X@$**;;;;- ;;;;;;****$$@@Xo,,-X@$$**;;;- ;;;;;****$$@@@Xo,",
",>+%&&=::::- ::::::===&&%%%+o,,>X@$$**;;;- ;;;;;**$$$@@@@Xo,,>X@@$**;;;- ;;;;;***$$$@@@Xo,,>+%&&=::::- ::::::===&&%%%+o,,>X@@$**;;;- ;;;;;***$$$@@@Xo,,>X@$$*;;;;- ;;;;;;***$$@@@Xo,,>X@@$**;;;- ;;;;;***$$$@@@Xo,",
",,-+%&==:::- ::::::==&&&%%%+o,,,-X@$***;;- ;;;;;**$$@@@@@Xo,,,-X@$**;;;- ;;;;;***$$$@@@Xo,,,-+%&==:::- ::::::==&&&%%%+o,,,-X@$**;;;- ;;;;;***$$$@@@Xo,,,-X@$**;;;- ;;;;;;**$$$@@@Xo,,,-X@$**;;;- ;;;;;***$$$@@@Xo,",
",,>+%%&=:::- :::::===&&%%%+o,,,,>X@$$**;;- ;;;;**$$$@@@@Xo,,,,>X@$$**;;- ;;;;;**$$$@@@Xo,,,,>+%%&=:::- :::::===&&%%%+o,,,,>X@$$**;;- ;;;;;**$$$@@@Xo,,,,>X@@$*;;;- ;;;;;***$$@@@Xo,,,,>X@$$**;;- ;;;;;**$$$@@@Xo,,",
",,,-+%&==:::- ::::==&&%%%%+o,,,,,-X@$$**;;- ;;**$$$@@@@@Xo,,,,,-X@$$*;;;- ;;;**$$$@@@@Xo,,,,,-+%&==:::- ::::==&&%%%%+o,,,,,-X@$$*;;;- ;;;**$$$@@@@Xo,,,,,-X@$**;;;- ;;;;**$$@@@@Xo,,,,,-X@$$*;;;- ;;;**$$$@@@@Xo,,",
",,,,-+&&&==:- :::==&&%%%%+o,,,,,,,-X@$$**;- **$$$$@@@@@Xo,,,,,,,-X@$$$*;- ;;**$$$@@@@Xo,,,,,,,-+&&&==:- :::==&&%%%%+o,,,,,,,-X@$$$*;- ;;**$$$@@@@Xo,,,,,,,-X$$$**;- ;;;**$$@@@@Xo,,,,,,,-X@$$$*;- ;;**$$$@@@@Xo,,,",
",,,,,-++%&&&- =&&&&&%%%%+o,,,,,,,,,-XX@$**- $$$$@@@@@@Xo,,,,,,,,,-XX@$$$- $$$$$$@@@@Xo,,,,,,,,,-++%&&&- =&&&&&%%%%+o,,,,,,,,,-XX@$$$- $$$$$$@@@@Xo,,,,,,,,,-XX@$$$- *$$$$$@@@@Xo,,,,,,,,,-XX@$$$- $$$$$$@@@@Xo,,,,",
",,,,,,--++%%%- &%%%%%%++o,,,,,,,,,,,--XX@@@- @@@@@@@XXo,,,,,,,,,,,--XX@@@- @@@@@@@XXo,,,,,,,,,,,--++%%%- &%%%%%%++o,,,,,,,,,,,--XX@@@- @@@@@@@XXo,,,,,,,,,,,--XX@@@- $@@@@@@XXo,,,,,,,,,,,--XX@@@- @@@@@@@XXo,,,,,",
",,,,,,..--+++- +++++++oo.,,,,,,,,,,,..--XXX- XXXXXXXoo.,,,,,,,,,,,..--XXX- XXXXXXXoo.,,,,,,,,,,,..--+++- +++++++oo.,,,,,,,,,,,..--XXX- XXXXXXXoo.,,,,,,,,,,,..--XXX- XXXXXXXoo.,,,,,,,,,,,..--XXX- XXXXXXXoo.,,,,,",
",,,,,,Oo..--------o-oo...,,,,,,,,,,,Oo..--------o-oo...,,,,,,,,,,,Oo..--------o-oo...,,,,,,,,,,,Oo..--------o-oo...,,,,,,,,,,,Oo..--------o-oo...,,,,,,,,,,,Oo..--------o-oo...,,,,,,,,,,,Oo..--------o-oo...,,,,,",
",,,,,,-Ooo...............,,,,,,,,,,,-Ooo...............,,,,,,,,,,,-Ooo...............,,,,,,,,,,,-Ooo...............,,,,,,,,,,,-Ooo...............,,,,,,,,,,,-Ooo...............,,,,,,,,,,,-Ooo...............,,,,,",
",,,,,>---#O#oooooo.oo.oo..,,,,,,,,,>---#O#oooooo.oo.oo..,,,,,,,,,>---#O#oooooo.oo.oo..,,,,,,,,,>---#O#oooooo.oo.oo..,,,,,,,,,>---#O#oooooo.oo.oo..,,,,,,,,,>---#O#oooooo.oo.oo..,,,,,,,,,>---#O#oooooo.oo.oo..,,,,",
",,,,,>--###O#OoOoooo.o....,,,,,,,,,>--###O#OoOoooo.o....,,,,,,,,,>--###O#OoOoooo.o....,,,,,,,,,>--###O#OoOoooo.o....,,,,,,,,,>--###O#OoOoooo.o....,,,,,,,,,>--###O#OoOoooo.o....,,,,,,,,,>--###O#OoOoooo.o....,,,,",
",,,,,--#-#OOOoOoo.........,,,,,,,,,--#-#OOOoOoo.........,,,,,,,,,--#-#OOOoOoo.........,,,,,,,,,--#-#OOOoOoo.........,,,,,,,,,--#-#OOOoOoo.........,,,,,,,,,--#-#OOOoOoo.........,,,,,,,,,--#-#OOOoOoo.........,,,,",
",,,,,,,,,,,,,>>---,,,,,,,,,,,,,,,,,,,,,,,,,>>---,,,,,,,,,,,,,,,,,,,,,,,,,>>---,,,,,,,,,,,,,,,,,,,,,,,,,>>---,,,,,,,,,,,,,,,,,,,,,,,,,>>---,,,,,,,,,,,,,,,,,,,,,,,,,>>---,,,,,,,,,,,,,,,,,,,,,,,,,>>---,,,,,,,,,,,,",
",,,,,,,,,,,,>ooooo.,,,,,,,,,,,,,,,,,,,,,,,>ooooo.,,,,,,,,,,,,,,,,,,,,,,,>ooooo.,,,,,,,,,,,,,,,,,,,,,,,>ooooo.,,,,,,,,,,,,,,,,,,,,,,,>ooooo.,,,,,,,,,,,,,,,,,,,,,,,>ooooo.,,,,,,,,,,,,,,,,,,,,,,,>ooooo.,,,,,,,,,,,",
",,,,,,,,,,,,-o,,,,o.,,,,,,,,,,,,,,,,,,,,,,-o,,,,o.,,,,,,,,,,,,,,,,,,,,,,-o,,,,o.,,,,,,,,,,,,,,,,,,,,,,-o,,,,o.,,,,,,,,,,,,,,,,,,,,,,-o,,,,o.,,,,,,,,,,,,,,,,,,,,,,-o,,,,o.,,,,,,,,,,,,,,,,,,,,,,-o,,,,o.,,,,,,,,,,",
",,,,,,,,,,,>.,,,,,Oo,,,,,,,,,,,,,,,,,,,,,>.,,,,,Oo,,,,,,,,,,,,,,,,,,,,,>.,,,,,Oo,,,,,,,,,,,,,,,,,,,,,>.,,,,,Oo,,,,,,,,,,,,,,,,,,,,,>.,,,,,Oo,,,,,,,,,,,,,,,,,,,,,>.,,,,,Oo,,,,,,,,,,,,,,,,,,,,,>.,,,,,Oo,,,,,,,,,,",
",,,,,,,,,,,>o,,,,,Oo,,,,,,,,,,,,,,,,,,,,,>o,,,,,Oo,,,,,,,,,,,,,,,,,,,,,>o,,,,,Oo,,,,,,,,,,,,,,,,,,,,,>o,,,,,Oo,,,,,,,,,,,,,,,,,,,,,>o,,,,,Oo,,,,,,,,,,,,,,,,,,,,,>o,,,,,Oo,,,,,,,,,,,,,,,,,,,,,>o,,,,,Oo,,,,,,,,,,",
",,,,,,,,,,,-o,,,,,Oo,,,,,,,,,,,,,,,,,,,,,-o,,,,,Oo,,,,,,,,,,,,,,,,,,,,,-o,,,,,Oo,,,,,,,,,,,,,,,,,,,,,-o,,,,,Oo,,,,,,,,,,,,,,,,,,,,,-o,,,,,Oo,,,,,,,,,,,,,,,,,,,,,-o,,,,,Oo,,,,,,,,,,,,,,,,,,,,,-o,,,,,Oo,,,,,,,,,,",
",,,,,,,,,,,>o,,,,,Oo,,,,,,,,,,,,,,,,,,,,,>o,,,,,Oo,,,,,,,,,,,,,,,,,,,,,>o,,,,,Oo,,,,,,,,,,,,,,,,,,,,,>o,,,,,Oo,,,,,,,,,,,,,,,,,,,,,>o,,,,,Oo,,,,,,,,,,,,,,,,,,,,,>o,,,,,Oo,,,,,,,,,,,,,,,,,,,,,>o,,,,,Oo,,,,,,,,,,",
",,,,,,,,,,>>.....o.OO,,,,,,,,,,,,,,,,,,,>>.....o.OO,,,,,,,,,,,,,,,,,,,>>.....o.OO,,,,,,,,,,,,,,,,,,,>>.....o.OO,,,,,,,,,,,,,,,,,,,>>.....o.OO,,,,,,,,,,,,,,,,,,,>>.....o.OO,,,,,,,,,,,,,,,,,,,>>.....o.OO,,,,,,,,,",
",,,,,,,,,,>>>->--OOOo,,,,,,,,,,,,,,,,,,,>>>->--OOOo,,,,,,,,,,,,,,,,,,,>>>->--OOOo,,,,,,,,,,,,,,,,,,,>>>->--OOOo,,,,,,,,,,,,,,,,,,,>>>->--OOOo,,,,,,,,,,,,,,,,,,,>>>->--OOOo,,,,,,,,,,,,,,,,,,,>>>->--OOOo,,,,,,,,,",
",,,,,,,,,,>>----OoOoo,,,,,,,,,,,,,,,,,,,>>----OoOoo,,,,,,,,,,,,,,,,,,,>>----OoOoo,,,,,,,,,,,,,,,,,,,>>----OoOoo,,,,,,,,,,,,,,,,,,,>>----OoOoo,,,,,,,,,,,,,,,,,,,>>----OoOoo,,,,,,,,,,,,,,,,,,,>>----OoOoo,,,,,,,,,",
",,,,,,,,,,>--O-Oooooo,,,,,,,,,,,,,,,,,,,>--O-Oooooo,,,,,,,,,,,,,,,,,,,>--O-Oooooo,,,,,,,,,,,,,,,,,,,>--O-Oooooo,,,,,,,,,,,,,,,,,,,>--O-Oooooo,,,,,,,,,,,,,,,,,,,>--O-Oooooo,,,,,,,,,,,,,,,,,,,>--O-Oooooo,,,,,,,,,",
",,,,,,,,,,,.........,,,,,,,,,,,,,,,,,,,,,.........,,,,,,,,,,,,,,,,,,,,,.........,,,,,,,,,,,,,,,,,,,,,.........,,,,,,,,,,,,,,,,,,,,,.........,,,,,,,,,,,,,,,,,,,,,.........,,,,,,,,,,,,,,,,,,,,,.........,,,,,,,,,,",
",,,,,,,,>-O--O-OOOoOooo,,,,,,,,,,,,,,,>-O--O-OOOoOooo,,,,,,,,,,,,,,,>-O--O-OOOoOooo,,,,,,,,,,,,,,,>-O--O-OOOoOooo,,,,,,,,,,,,,,,>-O--O-OOOoOooo,,,,,,,,,,,,,,,>-O--O-OOOoOooo,,,,,,,,,,,,,,,>-O--O-OOOoOooo,,,,,,,",
",,,,,,,,>---O-OOooOoooo,,,,,,,,,,,,,,,>---O-OOooOoooo,,,,,,,,,,,,,,,>---O-OOooOoooo,,,,,,,,,,,,,,,>---O-OOooOoooo,,,,,,,,,,,,,,,>---O-OOooOoooo,,,,,,,,,,,,,,,>---O-OOooOoooo,,,,,,,,,,,,,,,>---O-OOooOoooo,,,,,,,",
",,,,,,,,ooooooooooooooo,,,,,,,,,,,,,,,ooooooooooooooo,,,,,,,,,,,,,,,ooooooooooooooo,,,,,,,,,,,,,,,ooooooooooooooo,,,,,,,,,,,,,,,ooooooooooooooo,,,,,,,,,,,,,,,ooooooooooooooo,,,,,,,,,,,,,,,ooooooooooooooo,,,,,,,",
",,,,,,,>+++++- ++++++++o,,,,,,,,,,,,,>XXXXX- XXXXXXXXo,,,,,,,,,,,,,>XXXXX- XXXXXXXXo,,,,,,,,,,,,,>+++++- ++++++++o,,,,,,,,,,,,,>XXXXX- XXXXXXXXo,,,,,,,,,,,,,>XXXXX- XXXXXXXXo,,,,,,,,,,,,,>XXXXX- XXXXXXXXo,,,,,,",
",,,,,,>+%%%%%- %%%%%%%%+o,,,,,,,,,,,>X@@@@@- @@@@@@@@Xo,,,,,,,,,,,>X@@@@@- @@@@@@@@Xo,,,,,,,,,,,>+%%%%%- %%%%%%%%+o,,,,,,,,,,,>X@@@@@- @@@@@@@@Xo,,,,,,,,,,,>X@@@@@- @@@@@@@@Xo,,,,,,,,,,,>X@@@@@- @@@@@@@@Xo,,,,,",
",,,,,>+%%%%%%- %%%%%%%%%+o,,,,,,,,,>X@@@@@@- @@@@@@@@@Xo,,,,,,,,,>X@@@@@@- @@@@@@@@@Xo,,,,,,,,,>+%%%%%%- %%%%%%%%%+o,,,,,,,,,>X@@@@@@- @@@@@@@@@Xo,,,,,,,,,>X@@@@@@- @@@@@@@@@Xo,,,,,,,,,>X@@@@@@- @@@@@@@@@Xo,,,,",
",,,,>+%%%%%&&- &&&%%%%%%%+o,,,,,,,>X@@@@@@@- @@@@@@@@@@Xo,,,,,,,>X@@@@@@@- @@@@@@@@@@Xo,,,,,,,>+%%%%%&&- &&&%%%%%%%+o,,,,,,,>X@@@@@@@- @@@@@@@@@@Xo,,,,,,,>X@@@@@$$- $$$@@@@@@@Xo,,,,,,,>X@@@@@@@- @@@@@@@@@@Xo,,,",
",,,>+%%%%&&&- &&&&&&%%%%%+o,,,,,,>X@@@@@@@- @@@@@@@@@@@Xo,,,,,,>X@@@@@@@- $$@@@@@@@@@Xo,,,,,,>+%%%%&&&- &&&&&&%%%%%+o,,,,,,>X@@@@@@@- $$@@@@@@@@@Xo,,,,,,>X@@@@$$$- $$$$$$@@@@@Xo,,,,,,>X@@@@@@@- $$@@@@@@@@@Xo,,,",
",,>+%%%%&&&&- &&&&&&&%%%%%+o,,,,>X@@@@@@$$- $$$@@@@@@@@@Xo,,,,>X@@@@@@$$- $$$$@@@@@@@@Xo,,,,>+%%%%&&&&- &&&&&&&%%%%%+o,,,,>X@@@@@@$$- $$$$@@@@@@@@Xo,,,,>X@@@@$$$$- $$$$$$$@@@@@Xo,,,,>X@@@@@@$$- $$$$@@@@@@@@Xo,,",
",,>+%%%&&&&=- ===&&&&&%%%%+o,,,,>X@@@@@$$$- $$$$$@@@@@@@Xo,,,,>X@@@@$$$$- $$$$$$@@@@@@Xo,,,,>+%%%&&&&=- ===&&&&&%%%%+o,,,,>X@@@@$$$$- $$$$$$@@@@@@Xo,,,,>X@@@$$$$*- ***$$$$$@@@@Xo,,,,>X@@@@$$$$- $$$$$$@@@@@@Xo,,",
",>+%%%&&&===- =====&&&&%%%%+o,,>X@@@@$$$$$- $$$$$$@@@@@@@Xo,,>X@@@@$$$**- **$$$$$@@@@@@Xo,,>+%%%&&&===- =====&&&&%%%%+o,,>X@@@@$$$**- **$$$$$@@@@@@Xo,,>X@@@$$$***- *****$$$$@@@@Xo,,>X@@@@$$$**- **$$$$$@@@@@@Xo,",
",>+%%&&&====- ======&&&%%%%+o,,>X@@@$$$$**- $$$$$$$@@@@@@Xo,,>X@@@$$$***- ***$$$$$@@@@@Xo,,>+%%&&&====- ======&&&%%%%+o,,>X@@@$$$***- ***$$$$$@@@@@Xo,,>X@@$$$****- ******$$$@@@@Xo,,>X@@@$$$***- ***$$$$$@@@@@Xo,",
">+%%&&&====- ========&&&%%%%+o>X@@@@$$$**- ***$$$$$$@@@@@@Xo>X@@@@$$***- ******$$$$@@@@@Xo>+%%&&&====- ========&&&%%%%+o>X@@@@$$***- ******$$$$@@@@@Xo>X@@$$$****- ********$$$@@@@Xo>X@@@@$$***- ******$$$$@@@@@Xo",
">+%%&&&====- :========&&&%%%+o>X@@@@$$***- ****$$$$$@@@@@@Xo>X@@@$$****- *******$$$$@@@@Xo>+%%&&&====- :========&&&%%%+o>X@@@$$****- *******$$$$@@@@Xo>X@@$$$****- ;********$$$@@@Xo>X@@@$$****- *******$$$$@@@@Xo",
">-%&&&====:- :::======&&&%%%+o>-@@@$$****- ;*****$$$$@@@@@Xo>-@@@$$****- ;;******$$$@@@@Xo>-%&&&====:- :::======&&&%%%+o>-@@@$$****- ;;******$$$@@@@Xo>-@$$$****;- ;;;******$$$@@@Xo>-@@@$$****- ;;******$$$@@@@Xo",
"> -&&&===::- ::::======&&&---o> -@@$$***;- ;;;***$$$$@@@---o> -@$$$***;- ;;;******$$$@---o> -&&&===::- ::::======&&&---o> -@$$$***;- ;;;******$$$@---o> -$$$***;;- ;;;;******$$$---o> -@$$$***;- ;;;******$$$@---o",
">+ ----=:::- :::::===-----   o>X ----**;;- ;;;;;**$-----   o>X ----**;;- ;;;;****-----   o>+ ----=:::- :::::===-----   o>X ----**;;- ;;;;****-----   o>X ----*;;;- ;;;;;***-----   o>X ----**;;- ;;;;****-----   o",
">+%    --------------     %%+o>X@    --------------     @@Xo>X@    --------------     @@Xo>+%    --------------     %%+o>X@    --------------     @@Xo>X@    --------------     @@Xo>X@    --------------     @@Xo",
">+%&&==    -         ==&&%%%+o>X@$$$*    -         $$@@@@@Xo>X@@$$*    -         *$$$@@@Xo>+%&&==    -         ==&&%%%+o>X@@$$*    -         *$$$@@@Xo>X@$$**    -         **$$@@@Xo>X@@$$*    -         *$$$@@@Xo",
",-+%&==::::- ::::::====&&%%+o,,-X@$$**;;;- ;;;;;**$$$@@@@Xo,,-X@$$**;;;- ;;;;;****$$@@@Xo,,-+%&==::::- ::::::====&&%%+o,,-X@$$**;;;- ;;;;;****$$@@@Xo,,-X@$**;;;;- ;;;;;;****$$@@Xo,,-X@$$**;;;- ;;;;;****$$@@@Xo,",
",>+%&&=::::- ::::::===&&%%%+o,,>X@$$**;;;- ;;;;;**$$$@@@@Xo,,>X@@$**;;;- ;;;;;***$$$@@@Xo,,>+%&&=::::- ::::::===&&%%%+o,,>X@@$**;;;- ;;;;;***$$$@@@Xo,,>X@$$*;;;;- ;;;;;;***$$@@@Xo,,>X@@$**;;;- ;;;;;***$$$@@@Xo,",
",,-+%&==:::- ::::::==&&&%%%+o,,,-X@$***;;- ;;;;;**$$@@@@@Xo,,,-X@$**;;;- ;;;;;***$$$@@@Xo,,,-+%&==:::- ::::::==&&&%%%+o,,,-X@$**;;;- ;;;;;***$$$@@@Xo,,,-X@$**;;;- ;;;;;;**$$$@@@Xo,,,-X@$**;;;- ;;;;;***$$$@@@Xo,",
",,>+%%&=:::- :::::===&&%%%+o,,,,>X@$$**;;- ;;;;**$$$@@@@Xo,,,,>X@$$**;;- ;;;;;**$$$@@@Xo,,,,>+%%&=:::- :::::===&&%%%+o,,,,>X@$$**;;- ;;;;;**$$$@@@Xo,,,,>X@@$*;;;- ;;;;;***$$@@@Xo,,,,>X@$$**;;- ;;;;;**$$$@@@Xo,,",
",,,-+%&==:::- ::::==&&%%%%+o,,,,,-X@$$**;;- ;;**$$$@@@@@Xo,,,,,-X@$$*;;;- ;;;**$$$@@@@Xo,,,,,-+%&==:::- ::::==&&%%%%+o,,,,,-X@$$*;;;- ;;;**$$$@@@@Xo,,,,,-X@$**;;;- ;;;;**$$@@@@Xo,,,,,-X@$$*;;;- ;;;**$$$@@@@Xo,,",
",,,,-+&&&==:- :::==&&%%%%+o,,,,,,,-X@$$**;- **$$$$@@@@@Xo,,,,,,,-X@$$$*;- ;;**$$$@@@@Xo,,,,,,,-+&&&==:- :::==&&%%%%+o,,,,,,,-X@$$$*;- ;;**$$$@@@@Xo,,,,,,,-X$$$**;- ;;;**$$@@@@Xo,,,,,,,-X@$$$*;- ;;**$$$@@@@Xo,,,",
",,,,,-++%&&&- =&&&&&%%%%+o,,,,,,,,,-XX@$**- $$$$@@@@@@Xo,,,,,,,,,-XX@$$$- $$$$$$@@@@Xo,,,,,,,,,-++%&&&- =&&&&&%%%%+o,,,,,,,,,-XX@$$$- $$$$$$@@@@Xo,,,,,,,,,-XX@$$$- *$$$$$@@@@Xo,,,,,,,,,-XX@$$$- $$$$$$@@@@Xo,,,,",
",,,,,,--++%%%- &%%%%%%++o,,,,,,,,,,,--XX@@@- @@@@@@@XXo,,,,,,,,,,,--XX@@@- @@@@@@@XXo,,,,,,,,,,,--++%%%- &%%%%%%++o,,,,,,,,,,,--XX@@@- @@@@@@@XXo,,,,,,,,,,,--XX@@@- $@@@@@@XXo,,,,,,,,,,,--XX@@@- @@@@@@@XXo,,,,,",
",,,,,,..--+++- +++++++oo.,,,,,,,,,,,..--XXX- XXXXXXXoo.,,,,,,,,,,,..--XXX- XXXXXXXoo.,,,,,,,,,,,..--+++- +++++++oo.,,,,,,,,,,,..--XXX- XXXXXXXoo.,,,,,,,,,,,..--XXX- XXXXXXXoo.,,,,,,,,,,,..--XXX- XXXXXXXoo.,,,,,",
",,,,,,Oo..--------o-oo...,,,,,,,,,,,Oo..--------o-oo...,,,,,,,,,,,Oo..--------o-oo...,,,,,,,,,,,Oo..--------o-oo...,,,,,,,,,,,Oo..--------o-oo...,,,,,,,,,,,Oo..--------o-oo...,,,,,,,,,,,Oo..--------o-oo...,,,,,",
",,,,,,-Ooo...............,,,,,,,,,,,-Ooo...............,,,,,,,,,,,-Ooo...............,,,,,,,,,,,-Ooo...............,,,,,,,,,,,-Ooo...............,,,,,,,,,,,-Ooo...............,,,,,,,,,,,-Ooo...............,,,,,",
",,,,,>---#O#oooooo.oo.oo..,,,,,,,,,>---#O#oooooo.oo.oo..,,,,,,,,,>---#O#oooooo.oo.oo..,,,,,,,,,>---#O#oooooo.oo.oo..,,,,,,,,,>---#O#oooooo.oo.oo..,,,,,,,,,>---#O#oooooo.oo.oo..,,,,,,,,,>---#O#oooooo.oo.oo..,,,,",
",,,,,>--###O#OoOoooo.o....,,,,,,,,,>--###O#OoOoooo.o....,,,,,,,,,>--###O#OoOoooo.o....,,,,,,,,,>--###O#OoOoooo.o....,,,,,,,,,>--###O#OoOoooo.o....,,,,,,,,,>--###O#OoOoooo.o....,,,,,,,,,>--###O#OoOoooo.o....,,,,",
",,,,,--#-#OOOoOoo.........,,,,,,,,,--#-#OOOoOoo.........,,,,,,,,,--#-#OOOoOoo.........,,,,,,,,,--#-#OOOoOoo.........,,,,,,,,,--#-#OOOoOoo.........,,,,,,,,,--#-#OOOoOoo.........,,,,,,,,,--#-#OOOoOoo.........,,,,",
",,,,,,,,,,,,,>>---,,,,,,,,,,,,,,,,,,,,,,,,,>>---,,,,,,,,,,,,,,,,,,,,,,,,,>>---,,,,,,,,,,,,,,,,,,,,,,,,,>>---,,,,,,,,,,,,,,,,,,,,,,,,,>>---,,,,,,,,,,,,,,,,,,,,,,,,,>>---,,,,,,,,,,,,,,,,,,,,,,,,,>>---,,,,,,,,,,,,",
",,,,,,,,,,,,>ooooo.,,,,,,,,,,,,,,,,,,,,,,,>ooooo.,,,,,,,,,,,,,,,,,,,,,,,>ooooo.,,,,,,,,,,,,,,,,,,,,,,,>ooooo.,,,,,,,,,,,,,,,,,,,,,,,>ooooo.,,,,,,,,,,,,,,,,,,,,,,,>ooooo.,,,,,,,,,,,,,,,,,,,,,,,>ooooo.,,,,,,,,,,,",
",,,,,,,,,,,,-o,,,,o.,,,,,,,,,,,,,,,,,,,,,,-o,,,,o.,,,,,,,,,,,,,,,,,,,,,,-o,,,,o.,,,,,,,,,,,,,,,,,,,,,,-o,,,,o.,,,,,,,,,,,,,,,,,,,,,,-o,,,,o.,,,,,,,,,,,,,,,,,,,,,,-o,,,,o.,,,,,,,,,,,,,,,,,,,,,,-o,,,,o.,,,,,,,,,,",
",,,,,,,,,,,>.,,,,,Oo,,,,,,,,,,,,,,,,,,,,,>.,,,,,Oo,,,,,,,,,,,,,,,,,,,,,>.,,,,,Oo,,,,,,,,,,,,,,,,,,,,,>.,,,,,Oo,,,,,,,,,,,,,,,,,,,,,>.,,,,,Oo,,,,,,,,,,,,,,,,,,,,,>.,,,,,Oo,,,,,,,,,,,,,,,,,,,,,>.,,,,,Oo,,,,,,,,,,",
",,,,,,,,,,,>o,,,,,Oo,,,,,,,,,,,,,,,,,,,,,>o,,,,,Oo,,,,,,,,,,,,,,,,,,,,,>o,,,,,Oo,,,,,,,,,,,,,,,,,,,,,>o,,,,,Oo,,,,,,,,,,,,,,,,,,,,,>o,,,,,Oo,,,,,,,,,,,,,,,,,,,,,>o,,,,,Oo,,,,,,,,,,,,,,,,,,,,,>o,,,,,Oo,,,,,,,,,,",
",,,,,,,,,,,-o,,,,,Oo,,,,,,,,,,,,,,,,,,,,,-o,,,,,Oo,,,,,,,,,,,,,,,,,,,,,-o,,,,,Oo,,,,,,,,,,,,,,,,,,,,,-o,,,,,Oo,,,,,,,,,,,,,,,,,,,,,-o,,,,,Oo,,,,,,,,,,,,,,,,,,,,,-o,,,,,Oo,,,,,,,,,,,,,,,,,,,,,-o,,,,,Oo,,,,,,,,,,",
",,,,,,,,,,,>o,,,,,Oo,,,,,,,,,,,,,,,,,,,,,>o,,,,,Oo,,,,,,,,,,,,,,,,,,,,,>o,,,,,Oo,,,,,,,,,,,,,,,,,,,,,>o,,,,,Oo,,,,,,,,,,,,,,,,,,,,,>o,,,,,Oo,,,,,,,,,,,,,,,,,,,,,>o,,,,,Oo,,,,,,,,,,,,,,,,,,,,,>o,,,,,Oo,,,,,,,,,,",
",,,,,,,,,,>>.....o.OO,,,,,,,,,,,,,,,,,,,>>.....o.OO,,,,,,,,,,,,,,,,,,,>>.....o.OO,,,,,,,,,,,,,,,,,,,>>.....o.OO,,,,,,,,,,,,,,,,,,,>>.....o.OO,,,,,,,,,,,,,,,,,,,>>.....o.OO,,,,,,,,,,,,,,,,,,,>>.....o.OO,,,,,,,,,",
",,,,,,,,,,>>>->--OOOo,,,,,,,,,,,,,,,,,,,>>>->--OOOo,,,,,,,,,,,,,,,,,,,>>>->--OOOo,,,,,,,,,,,,,,,,,,,>>>->--OOOo,,,,,,,,,,,,,,,,,,,>>>->--OOOo,,,,,,,,,,,,,,,,,,,>>>->--OOOo,,,,,,,,,,,,,,,,,,,>>>->--OOOo,,,,,,,,,",
",,,,,,,,,,>>----OoOoo,,,,,,,,,,,,,,,,,,,>>----OoOoo,,,,,,,,,,,,,,,,,,,>>----OoOoo,,,,,,,,,,,,,,,,,,,>>----OoOoo,,,,,,,,,,,,,,,,,,,>>----OoOoo,,,,,,,,,,,,,,,,,,,>>----OoOoo,,,,,,,,,,,,,,,,,,,>>----OoOoo,,,,,,,,,",
",,,,,,,,,,>--O-Oooooo,,,,,,,,,,,,,,,,,,,>--O-Oooooo,,,,,,,,,,,,,,,,,,,>--O-Oooooo,,,,,,,,,,,,,,,,,,,>--O-Oooooo,,,,,,,,,,,,,,,,,,,>--O-Oooooo,,,,,,,,,,,,,,,,,,,>--O-Oooooo,,,,,,,,,,,,,,,,,,,>--O-Oooooo,,,,,,,,,",
",,,,,,,,,,,.........,,,,,,,,,,,,,,,,,,,,,.........,,,,,,,,,,,,,,,,,,,,,.........,,,,,,,,,,,,,,,,,,,,,.........,,,,,,,,,,,,,,,,,,,,,.........,,,,,,,,,,,,,,,,,,,,,.........,,,,,,,,,,,,,,,,,,,,,.........,,,,,,,,,,",
",,,,,,,,>-O--O-OOOoOooo,,,,,,,,,,,,,,,>-O--O-OOOoOooo,,,,,,,,,,,,,,,>-O--O-OOOoOooo,,,,,,,,,,,,,,,>-O--O-OOOoOooo,,,,,,,,,,,,,,,>-O--O-OOOoOooo,,,,,,,,,,,,,,,>-O--O-OOOoOooo,,,,,,,,,,,,,,,>-O--O-OOOoOooo,,,,,,,",
",,,,,,,,>---O-OOooOoooo,,,,,,,,,,,,,,,>---O-OOooOoooo,,,,,,,,,,,,,,,>---O-OOooOoooo,,,,,,,,,,,,,,,>---O-OOooOoooo,,,,,,,,,,,,,,,>---O-OOooOoooo,,,,,,,,,,,,,,,>---O-OOooOoooo,,,,,,,,,,,,,,,>---O-OOooOoooo,,,,,,,",
",,,,,,,,ooooooooooooooo,,,,,,,,,,,,,,,ooooooooooooooo,,,,,,,,,,,,,,,ooooooooooooooo,,,,,,,,,,,,,,,ooooooooooooooo,,,,,,,,,,,,,,,ooooooooooooooo,,,,,,,,,,,,,,,ooooooooooooooo,,,,,,,,,,,,,,,ooooooooooooooo,,,,,,,",
",,,,,,,>+++++- ++++++++o,,,,,,,,,,,,,>XXXXX- XXXXXXXXo,,,,,,,,,,,,,>XXXXX- XXXXXXXXo,,,,,,,,,,,,,>+++++- ++++++++o,,,,,,,,,,,,,>XXXXX- XXXXXXXXo,,,,,,,,,,,,,>XXXXX- XXXXXXXXo,,,,,,,,,,,,,>XXXXX- XXXXXXXXo,,,,,,",
",,,,,,>+%%%%%- %%%%%%%%+o,,,,,,,,,,,>X@@@@@- @@@@@@@@Xo,,,,,,,,,,,>X@@@@@- @@@@@@@@Xo,,,,,,,,,,,>+%%%%%- %%%%%%%%+o,,,,,,,,,,,>X@@@@@- @@@@@@@@Xo,,,,,,,,,,,>X@@@@@- @@@@@@@@Xo,,,,,,,,,,,>X@@@@@- @@@@@@@@Xo,,,,,",
",,,,,>+%%%%%%- %%%%%%%%%+o,,,,,,,,,>X@@@@@@- @@@@@@@@@Xo,,,,,,,,,>X@@@@@@- @@@@@@@@@Xo,,,,,,,,,>+%%%%%%- %%%%%%%%%+o,,,,,,,,,>X@@@@@@- @@@@@@@@@Xo,,,,,,,,,>X@@@@@@- @@@@@@@@@Xo,,,,,,,,,>X@@@@@@- @@@@@@@@@Xo,,,,",
",,,,>+%%%%%&&- &&&%%%%%%%+o,,,,,,,>X@@@@@@@- @@@@@@@@@@Xo,,,,,,,>X@@@@@@@- @@@@@@@@@@Xo,,,,,,,>+%%%%%&&- &&&%%%%%%%+o,,,,,,,>X@@@@@@@- @@@@@@@@@@Xo,,,,,,,>X@@@@@$$- $$$@@@@@@@Xo,,,,,,,>X@@@@@@@- @@@@@@@@@@Xo,,,",
",,,>+%%%%&&&- &&&&&&%%%%%+o,,,,,,>X@@@@@@@- @@@@@@@@@@@Xo,,,,,,>X@@@@@@@- $$@@@@@@@@@Xo,,,,,,>+%%%%&&&- &&&&&&%%%%%+o,,,,,,>X@@@@@@@- $$@@@@@@@@@Xo,,,,,,>X@@@@$$$- $$$$$$@@@@@Xo,,,,,,>X@@@@@@@- $$@@@@@@@@@Xo,,,",
",,>+%%%%&&&&- &&&&&&&%%%%%+o,,,,>X@@@@@@$$- $$$@@@@@@@@@Xo,,,,>X@@@@@@$$- $$$$@@@@@@@@Xo,,,,>+%%%%&&&&- &&&&&&&%%%%%+o,,,,>X@@@@@@$$- $$$$@@@@@@@@Xo,,,,>X@@@@$$$$- $$$$$$$@@@@@Xo,,,,>X@@@@@@$$- $$$$@@@@@@@@Xo,,",
",,>+%%%&&&&=- ===&&&&&%%%%+o,,,,>X@@@@@$$$- $$$$$@@@@@@@Xo,,,,>X@@@@$$$$- $$$$$$@@@@@@Xo,,,,>+%%%&&&&=- ===&&&&&%%%%+o,,,,>X@@@@$$$$- $$$$$$@@@@@@Xo,,,,>X@@@$$$$*- ***$$$$$@@@@Xo,,,,>X@@@@$$$$- $$$$$$@@@@@@Xo,,",
",>+%%%&&&===- =====&&&&%%%%+o,,>X@@@@$$$$$- $$$$$$@@@@@@@Xo,,>X@@@@$$$**- **$$$$$@@@@@@Xo,,>+%%%&&&===- =====&&&&%%%%+o,,>X@@@@$$$**- **$$$$$@@@@@@Xo,,>X@@@$$$***- *****$$$$@@@@Xo,,>X@@@@$$$**- **$$$$$@@@@@@Xo,",
",>+%%&&&====- ======&&&%%%%+o,,>X@@@$$$$**- $$$$$$$@@@@@@Xo,,>X@@@$$$***- ***$$$$$@@@@@Xo,,>+%%&&&====- ======&&&%%%%+o,,>X@@@$$$***- ***$$$$$@@@@@Xo,,>X@@$$$****- ******$$$@@@@Xo,,>X@@@$$$***- ***$$$$$@@@@@Xo,",
">+%%&&&====- ========&&&%%%%+o>X@@@@$$$**- ***$$$$$$@@@@@@Xo>X@@@@$$***- ******$$$$@@@@@Xo>+%%&&&====- ========&&&%%%%+o>X@@@@$$***- ******$$$$@@@@@Xo>X@@$$$****- ********$$$@@@@Xo>X@@@@$$***- ******$$$$@@@@@Xo",
">+%%&&&====- :========&&&%%%+o>X@@@@$$***- ****$$$$$@@@@@@Xo>X@@@$$****- *******$$$$@@@@Xo>+%%&&&====- :========&&&%%%+o>X@@@$$****- *******$$$$@@@@Xo>X@@$$$****- ;********$$$@@@Xo>X@@@$$****- *******$$$$@@@@Xo",
">-%&&&====:- :::======&&&%%%+o>-@@@$$****- ;*****$$$$@@@@@Xo>-@@@$$****- ;;******$$$@@@@Xo>-%&&&====:- :::======&&&%%%+o>-@@@$$****- ;;******$$$@@@@Xo>-@$$$****;- ;;;******$$$@@@Xo>-@@@$$****- ;;******$$$@@@@Xo",
"> -&&&===::- ::::======&&&---o> -@@$$***;- ;;;***$$$$@@@---o> -@$$$***;- ;;;******$$$@---o> -&&&===::- ::::======&&&---o> -@$$$***;- ;;;******$$$@---o> -$$$***;;- ;;;;******$$$---o> -@$$$***;- ;;;******$$$@---o",
">+ ----=:::- :::::===-----   o>X ----**;;- ;;;;;**$-----   o>X ----**;;- ;;;;****-----   o>+ ----=:::- :::::===-----   o>X ----**;;- ;;;;****-----   o>X ----*;;;- ;;;;;***-----   o>X ----**;;- ;;;;****-----   o",
">+%    --------------     %%+o>X@    --------------     @@Xo>X@    --------------     @@Xo>+%    --------------     %%+o>X@    --------------     @@Xo>X@    --------------     @@Xo>X@    --------------     @@Xo",
">+%&&==    -         ==&&%%%+o>X@$$$*    -         $$@@@@@Xo>X@@$$*    -         *$$$@@@Xo>+%&&==    -         ==&&%%%+o>X@@$$*    -         *$$$@@@Xo>X@$$**    -         **$$@@@Xo>X@@$$*    -         *$$$@@@Xo",
",-+%&==::::- ::::::====&&%%+o,,-X@$$**;;;- ;;;;;**$$$@@@@Xo,,-X@$$**;;;- ;;;;;****$$@@@Xo,,-+%&==::::- ::::::====&&%%+o,,-X@$$**;;;- ;;;;;****$$@@@Xo,,-X@$**;;;;- ;;;;;;****$$@@Xo,,-X@$$**;;;- ;;;;;****$$@@@Xo,",
",>+%&&=::::- ::::::===&&%%%+o,,>X@$$**;;;- ;;;;;**$$$@@@@Xo,,>X@@$**;;;- ;;;;;***$$$@@@Xo,,>+%&&=::::- ::::::===&&%%%+o,,>X@@$**;;;- ;;;;;***$$$@@@Xo,,>X@$$*;;;;- ;;;;;;***$$@@@Xo,,>X@@$**;;;- ;;;;;***$$$@@@Xo,",
",,-+%&==:::- ::::::==&&&%%%+o,,,-X@$***;;- ;;;;;**$$@@@@@Xo,,,-X@$**;;;- ;;;;;***$$$@@@Xo,,,-+%&==:::- ::::::==&&&%%%+o,,,-X@$**;;;- ;;;;;***$$$@@@Xo,,,-X@$**;;;- ;;;;;;**$$$@@@Xo,,,-X@$**;;;- ;;;;;***$$$@@@Xo,",
",,>+%%&=:::- :::::===&&%%%+o,,,,>X@$$**;;- ;;;;**$$$@@@@Xo,,,,>X@$$**;;- ;;;;;**$$$@@@Xo,,,,>+%%&=:::- :::::===&&%%%+o,,,,>X@$$**;;- ;;;;;**$$$@@@Xo,,,,>X@@$*;;;- ;;;;;***$$@@@Xo,,,,>X@$$**;;- ;;;;;**$$$@@@Xo,,",
",,,-+%&==:::- ::::==&&%%%%+o,,,,,-X@$$**;;- ;;**$$$@@@@@Xo,,,,,-X@$$*;;;- ;;;**$$$@@@@Xo,,,,,-+%&==:::- ::::==&&%%%%+o,,,,,-X@$$*;;;- ;;;**$$$@@@@Xo,,,,,-X@$**;;;- ;;;;**$$@@@@Xo,,,,,-X@$$*;;;- ;;;**$$$@@@@Xo,,",
",,,,-+&&&==:- :::==&&%%%%+o,,,,,,,-X@$$**;- **$$$$@@@@@Xo,,,,,,,-X@$$$*;- ;;**$$$@@@@Xo,,,,,,,-+&&&==:- :::==&&%%%%+o,,,,,,,-X@$$$*;- ;;**$$$@@@@Xo,,,,,,,-X$$$**;- ;;;**$$@@@@Xo,,,,,,,-X@$$$*;- ;;**$$$@@@@Xo,,,",
",,,,,-++%&&&- =&&&&&%%%%+o,,,,,,,,,-XX@$**- $$$$@@@@@@Xo,,,,,,,,,-XX@$$$- $$$$$$@@@@Xo,,,,,,,,,-++%&&&- =&&&&&%%%%+o,,,,,,,,,-XX@$$$- $$$$$$@@@@Xo,,,,,,,,,-XX@$$$- *$$$$$@@@@Xo,,,,,,,,,-XX@$$$- $$$$$$@@@@Xo,,,,",
",,,,,,--++%%%- &%%%%%%++o,,,,,,,,,,,--XX@@@- @@@@@@@XXo,,,,,,,,,,,--XX@@@- @@@@@@@XXo,,,,,,,,,,,--++%%%- &%%%%%%++o,,,,,,,,,,,--XX@@@- @@@@@@@XXo,,,,,,,,,,,--XX@@@- $@@@@@@XXo,,,,,,,,,,,--XX@@@- @@@@@@@XXo,,,,,",
",,,,,,..--+++- +++++++oo.,,,,,,,,,,,..--XXX- XXXXXXXoo.,,,,,,,,,,,..--XXX- XXXXXXXoo.,,,,,,,,,,,..--+++- +++++++oo.,,,,,,,,,,,..--XXX- XXXXXXXoo.,,,,,,,,,,,..--XXX- XXXXXXXoo.,,,,,,,,,,,..--XXX- XXXXXXXoo.,,,,,",
",,,,,,Oo..--------o-oo...,,,,,,,,,,,Oo..--------o-oo...,,,,,,,,,,,Oo..--------o-oo...,,,,,,,,,,,Oo..--------o-oo...,,,,,,,,,,,Oo..--------o-oo...,,,,,,,,,,,Oo..--------o-oo...,,,,,,,,,,,Oo..--------o-oo...,,,,,",
",,,,,,-Ooo...............,,,,,,,,,,,-Ooo...............,,,,,,,,,,,-Ooo...............,,,,,,,,,,,-Ooo...............,,,,,,,,,,,-Ooo...............,,,,,,,,,,,-Ooo...............,,,,,,,,,,,-Ooo...............,,,,,",
",,,,,>---#O#oooooo.oo.oo..,,,,,,,,,>---#O#oooooo.oo.oo..,,,,,,,,,>---#O#oooooo.oo.oo..,,,,,,,,,>---#O#oooooo.oo.oo..,,,,,,,,,>---#O#oooooo.oo.oo..,,,,,,,,,>---#O#oooooo.oo.oo..,,,,,,,,,>---#O#oooooo.oo.oo..,,,,",
",,,,,>--###O#OoOoooo.o....,,,,,,,,,>--###O#OoOoooo.o....,,,,,,,,,>--###O#OoOoooo.o....,,,,,,,,,>--###O#OoOoooo.o....,,,,,,,,,>--###O#OoOoooo.o....,,,,,,,,,>--###O#OoOoooo.o....,,,,,,,,,>--###O#OoOoooo.o....,,,,",
",,,,,--#-#OOOoOoo.........,,,,,,,,,--#-#OOOoOoo.........,,,,,,,,,--#-#OOOoOoo.........,,,,,,,,,--#-#OOOoOoo.........,,,,,,,,,--#-#OOOoOoo.........,,,,,,,,,--#-#OOOoOoo.........,,,,,,,,,--#-#OOOoOoo.........,,,,"
};
