/* XPM */
static char *_b40a21f7b6d4dfaa8e4221d5a8df1b0ejHU3biEsI7MSTwe[] = {
/* columns rows colors chars-per-pixel */
"210 135 256 2 ",
"   c None",
".  c #291C16",
"X  c #2B1E19",
"o  c #261C17",
"O  c #331B14",
"+  c #2E211B",
"@  c #33231D",
"#  c #3A241E",
"$  c #3B271C",
"%  c #352522",
"&  c #3B2622",
"*  c #3C2A24",
"=  c #3C2D29",
"-  c #362826",
";  c #3E312A",
":  c #382C33",
">  c #190B0A",
",  c #481809",
"<  c #4A1B0E",
"1  c #47271D",
"2  c #58291D",
"3  c #543016",
"4  c #762B0A",
"5  c #672D1A",
"6  c #6A331A",
"7  c #7B3415",
"8  c #78351A",
"9  c #732E0F",
"0  c #422622",
"q  c #432C25",
"w  c #4B2B24",
"e  c #432E29",
"r  c #492D29",
"t  c #44332B",
"y  c #4B342C",
"u  c #4B3B2D",
"i  c #473424",
"p  c #54372B",
"a  c #4C3A33",
"s  c #483734",
"d  c #543C33",
"f  c #5B3E33",
"g  c #543C38",
"h  c #4C2D2C",
"j  c #713A26",
"k  c #764417",
"l  c #5D4135",
"z  c #5B423A",
"x  c #554438",
"c  c #55452F",
"v  c #64453A",
"b  c #66463A",
"n  c #6B502F",
"m  c #6D6439",
"M  c #4E3B46",
"N  c #594545",
"B  c #564A50",
"V  c #664C44",
"C  c #6B534A",
"Z  c #765549",
"A  c #685657",
"S  c #765B54",
"D  c #6E4D49",
"F  c #7B625A",
"G  c #786E45",
"H  c #705C63",
"J  c #796865",
"K  c #3F3944",
"L  c #863A18",
"P  c #923C0D",
"I  c #843E25",
"U  c #984618",
"Y  c #904A16",
"T  c #A7480B",
"R  c #B9550D",
"E  c #A64C18",
"W  c #AB531A",
"Q  c #B75819",
"!  c #B14E0B",
"~  c #AE661C",
"^  c #8A4329",
"/  c #974A29",
"(  c #8A4A36",
")  c #995339",
"_  c #94502E",
"`  c #A7542A",
"'  c #A65838",
"]  c #AD572B",
"[  c #916B29",
"{  c #B56931",
"}  c #95631E",
"|  c #C45D11",
" . c #C9651A",
".. c #D36C1C",
"X. c #D56B15",
"o. c #DC731D",
"O. c #D8741A",
"+. c #CE6B14",
"@. c #E47A1D",
"#. c #E5781B",
"$. c #F07F1A",
"%. c #DE7621",
"&. c #DF7822",
"*. c #D8772A",
"=. c #CD722D",
"-. c #E27B22",
";. c #E97E22",
":. c #E37A27",
">. c #E67E31",
",. c #86594A",
"<. c #965A47",
"1. c #865E52",
"2. c #A45D44",
"3. c #876559",
"4. c #986758",
"5. c #936F50",
"6. c #AB6B50",
"7. c #8C6C64",
"8. c #886B68",
"9. c #956E62",
"0. c #8B716B",
"q. c #95756C",
"w. c #9B7A6D",
"e. c #987569",
"r. c #8A7674",
"t. c #9C7C72",
"y. c #957973",
"u. c #866D70",
"i. c #A67869",
"p. c #A27E73",
"a. c #A87D72",
"s. c #B07966",
"d. c #805F60",
"f. c #CB7D46",
"g. c #B38C36",
"h. c #EA841E",
"j. c #F1811B",
"k. c #D98525",
"l. c #D39432",
"z. c #E58426",
"x. c #EC8223",
"c. c #EA8C29",
"v. c #E88827",
"b. c #F38727",
"n. c #EE942C",
"m. c #EA962B",
"M. c #F1962C",
"N. c #F2992D",
"B. c #FB9C2D",
"V. c #F59525",
"C. c #EB8535",
"Z. c #F58B36",
"A. c #FB8E36",
"S. c #F28936",
"D. c #E89633",
"F. c #FE9236",
"G. c #FA9438",
"H. c #F69836",
"J. c #DAA638",
"K. c #FCA22E",
"L. c #F2A435",
"P. c #FDA433",
"I. c #FEA53D",
"U. c #F3AC3A",
"Y. c #FFAA3D",
"T. c #F7A936",
"R. c #F4B43D",
"E. c #FABD3D",
"W. c #F9B63D",
"Q. c #E7AC39",
"!. c #DA811E",
"~. c #FCC03D",
"^. c #958E54",
"/. c #9B827A",
"(. c #8E827F",
"). c #A38175",
"_. c #AA8579",
"`. c #B48979",
"'. c #B28A6E",
"]. c #B1AB68",
"[. c #B39155",
"{. c #D18B52",
"}. c #F69A45",
"|. c #EA924C",
" X c #D5AD4B",
".X c #FEAC42",
"XX c #F8A648",
"oX c #F5BC44",
"OX c #FCBC44",
"+X c #FBB646",
"@X c #FAB855",
"#X c #EDB050",
"$X c #CC956C",
"%X c #D3AC6E",
"&X c #E9B369",
"*X c #FCC344",
"=X c #FEC44C",
"-X c #FFCA4C",
";X c #F6C248",
":X c #FFC651",
">X c #FFCA52",
",X c #FBCA5B",
"<X c #FFD459",
"1X c #F1C84F",
"2X c #DAD57C",
"3X c #CEC674",
"4X c #FACA65",
"5X c #FBD667",
"6X c #F8DB76",
"7X c #E6D272",
"8X c #FDE678",
"9X c #FFE46A",
"0X c #988B88",
"qX c #A98B84",
"wX c #B38E82",
"eX c #BA9589",
"rX c #A99A95",
"tX c #B89B94",
"yX c #AA928A",
"uX c #BBA39C",
"iX c #B5A193",
"pX c #BBA7A3",
"aX c #BFB0AE",
"sX c #C29A8C",
"dX c #C49E91",
"fX c #C7A499",
"gX c #CEAE90",
"hX c #C5ABA5",
"jX c #C9B2AB",
"kX c #D5B5AB",
"lX c #CBB7B4",
"zX c #D4BCB5",
"xX c #D3AEA1",
"cX c #DBD783",
"vX c #DBC591",
"bX c #E2DC86",
"nX c #ECD496",
"mX c #E8E489",
"MX c #FAEA89",
"NX c #FEF48C",
"BX c #FAEB97",
"VX c #FCF393",
"CX c #FFFD9B",
"ZX c #FCF598",
"AX c #EDE991",
"SX c #D8C3BC",
"DX c #E3C6B6",
"FX c #FFFEA2",
"GX c #FFF5A2",
"HX c #FBEAA1",
"JX c #DBC9C4",
"KX c #D8CBC9",
"LX c #E3CDC5",
"PX c #E8D2CC",
"IX c #ECD8D2",
"UX c #CEBEC0",
/* pixels */
"                        hXuX_.).e.                                                  jXhXqXp._.V                                                 lXpXtXp._.F                                                   pXuX)._.7.                                                  hXhXqXp.p.z                                                 jXhXyXp._.S                                                   pXtXp._.3.                      ",
"                      SXS q a a y @                                               IXy.* a a d & o                                               eXy y a d e .                                               jXV e a d y @                                               LX8.* a a d %                                                 qXe y a d * .                                               uXd t a d t +                     ",
"                      /.y         t %                                             eXV         y q                                             hXF .         t @                                             q.q         q @                                             qXl         t *                                             uXZ           e +                                             7.#         q @                   ",
"                    lXN           b y                                           PX8.          b f                                             yX@           l q                                           pXa           v y                                           JXA           b d                                             /..           l q                                           rX=           l e                   ",
"                    fXN           b y                                           zX8.          b f                                             qX#           v q                                           tXg           v y                                           jXS           b d                                             t.O           v q                                           yXt           v t                   ",
"                    eXV           b y                                           fX3.          b f                                             t.e           v q                                           _.z           b y                                           tXS           b d                                             e.&           v *                                           ).a           v e                   ",
"                    jXg           y p                                           LXJ >         y d f                                         IXqX>           p p                                           pXe           y p                                           SXC           y d f                                         PXy.>         y d d                                           tX@           y p                   ",
"                  LXJXA t x a g y * l b                                       JXIXr.; x g a d * p b                                         PXtXa a x a g q t b v                                       LXzXN t x a g y * v b                                       LXPXJ = x a a a * f b                                         PX0Xt a x a g q y b l                                       PXjXx t x a g t q b b                 ",
"                  SXPXlXfXjXfX_.D l b y                                       SXPXzXfXfXhXwXS f b d                                         JXJXfXfXjXsX9.l b l q                                       SXLXjXfXjXfXp.b v v t                                       SXPXzXfXhXfX`.Z f b y                                         PXSXfXfXxXeX3.f b f q                                       SXJXhXfXjXdXw.v v v e                 ",
"                  JXPXxXeXfXeXZ y f p *                                       JXIXkXeXdXfX3.y d d e q                                       PXDXsXeXfXp.f y f y *                                       JXLXfXeXfXwXV y l y *                                       JXIXxXeXfXdX1.y f d q                                       JXIXkXsXsXfXe.p p f t *                                       JXDXfXeXfX_.v y l y *                 ",
"                  jX).3.b F V @ @ & & *                                         yX9.V S Z * @ & & *                                         tXe.Z V 3.y @ & & *                                         hXt.3.b 3.l @ @ & & q                                         qX7.V S C # @ & & *                                         tXq.C C S q @ & & *                                         uXw.S V 3.d @ % & & q                 ",
"                    y a @ t * @ & + @                                           q g & e t @ & @ @ *                                         1 a t & y @ & @ @ &                                           y a @ y & # & @ %                                           e g & t e @ & @ @ q                                         q g = * t @ & @ @ *                                           a t @ s @ & % @ &                   ",
"              PXfX3._._.3.e.Z f f p d y q q                               PXkX4.i.wX3.e.3.f l p d p q q                                 DX).9.eXe.3.7.v f d d d q q q                               LXsX3.wXp.3.e.D f f p d y q q                               PXkX3.).`.3.e.S f f p d y q q                                 DXe.e.wX7.7.3.l f d d d q q q                               LXwX3.wXw.3.e.b f f p d e q e             ",
"              uXqX).t.Z 3.Z l t e d y = e =                               jXtX)._.F 3.3.v y = d d e e t                                 tX)._.7.Z 3.b d e y d t e t e                               uX_.).w.Z 7.Z f t t d t = e =                               aXyX)._.S 3.1.v y e d a e t t                                 tX)._.3.S 3.b d = d d t e t e                               tX_._.e.S 7.D f t y d t e t e             ",
"              N 1 y r w f e 0 r w r w w r r                               S # w w # d a # 0 0 0 0 0 0 0 *                             /.0 0 r # y d & 0 0 0 0 0 0 0 q                               d 0 y w r z q q w w r w w r w                               C # r w # f y # 0 0 0 0 0 0 0 *                             u.1 w w # p d # 0 0 0 0 0 0 0 *                               r 1 r # r x * 1 0 0 0 0 0 0 0             ",
"            uX' U / / ' i.t 8 ` / / / / ` ` p                           jX<.4 7 7 L i.B < L L L L L L L 5 -                         KXi.4 7 7 4 2.J $ L L L L L L L 8 0                           eX_ U / U ' q.= ^ ` / / / / ` / p                           hX_ 4 7 7 L i.x < L L L L L L L 2 -                         zX4.4 7 7 4 6.S < L L L L L L L 6 -                           _.L 4 7 4 ) 0.# 7 L L L L L L 8 0           ",
"          tX6.>.F.A.Z.G.`.s { F.Z.Z.A.Z.A.A.{ p                       jX<.Q ;.-.@.@.$XB Y ;.-.-.-.-.-.;.Q 2 -                     KXe.E @.-.-.#.|.J 3 @.-.%.-.-.-.;...8 &                       eX{ b.F.Z.Z.}.).t *.F.Z.A.A.Z.A.Z.] w                       pX<. .;.-.@.;.$XM Y ;.%.%.%.-.-.-.W 2 -                     lX4.W -.-.-.#.{.A 6 @.-.%.-.-.-.;. .6 &                       _.E o.-.-.#.|.y.1 ..;.%.-.-.-.;.o.L 0         ",
"        tX2.:.F.A.A.F.I.`.: { I.G.A.A.F.F.F.A.{ p                   jX<.R @.z.-.;.$.$XB k b.;.;.;.;.;.;.x.Q 5 q                 KXi.E #.;.;.;.#.|.J 3 @.x.-.;.;.;.;.x...8 0                   eX{ >.F.A.A.F.XX_.- *.I.G.A.A.F.F.F.Z.] p                   pX) | ;.-.;.@.j.$XK Y b.;.;.;.;.;.;.;.W 2 *                 lX4.! @.;.-.;.j.|.A 6 b.v.-.-.-.;.;.x. .6 w                   _.E X.;.;.-.#.S.y.$ ..b.;.;.;.;.;.x.o.L w       ",
"      tX2.:.F.A.A.F.I.XXw.l l..XI.G.A.A.Z.A.F.A.` 0               jX<.R @.;.&.%.@.:.'.N Y ;.-.-.&.&.&.&.;.x.E 1               KXi.E #.-.-.&.o.-.{.S k @.-.%.-.-.&.&.-.x. .5 *               eX{ >.F.Z.A.G.I.#X9.l D..XI.G.A.Z.A.A.F.Z./ *               pX) | ;.-.&.%.@.>.s.z W x.%.-.-.&.&.&.;.;.U 1               lX4.! @.;.&.-.v.N.{.C Y B.N.c.-.-.%.&.-.x.Q 2 -               _.E O.;.-.&.o.-.{.3.k o.-.%.-.-.&.&.-.x...6 -     ",
"    dX6.:.F.Z.A.I.Y..X'.s { .XI.I.I.I.G.Z.Z.A.F.{ p             hX6.R @.-.&.%.-.h.$XB Y b.z.-.%.-.-.-.-.-.x.Q 5 q           zXi.E #.-.%.%.-.@.|.J k M.M.-.-.%.%.&.&.&.x...8 0             eX{ >.F.Z.G.I.P.XX).t l..XI.I.I.I.G.Z.Z.F.A.] p             fX) | ;.-.%.%.@.v.$XM } K.v.-.-.%.-.-.-.-.x.W 2 q           lXi.! @.-.&.v.M.V.|.A k N.N.n.n.M.c.-.%.&.x. .8 w             _.E O.;.-.%.-.@.|.0.i k.N.z.-.%.%.-.-.&.;.%.L w     ",
"  lX2.%.F.Z.A.I.I.I.+X`.= l.OX.XI.I.Y.I.G.Z.Z.A.A.` 0         PX9.T x.-.%.%.-.c.B.$XM Y K.N.v.-.-.%.&.&.-.-.;.E 1           qXP #.;.%.-.-.z.V.|.H 3 B.B.n.c.-.-.%.-.-.-.x. .2 *         hX' :.F.Z.G.I.I.P.@Xt.= D.+X.XI.I.Y.I.G.Z.Z.F.S./ *         KX<.! x.-.%.-.-.c.N.$X: ~ K.M.n.z.-.-.%.-.-.-.;.U 1           p.T @.-.&.v.M.M.B.&XB k P.P.M.n.M.N.c.-.%.-.x.Q 2 -         tXL X.x.&.&.-.z.V.XXu.i c.B.n.n.z.-.%.&.&.&.;...6 -   ",
"  tX' x.F.A.I.I..XY.>X`.s l.<X=X+X.XI.I.I.G.Z.A.F.{ p         hX<.R x.%.-.-.c.M.V.$XN Y P.N.M.M.v.-.%.&.-.-.x.Q 5 q       SXi.T ;.-.%.v.n.M.K.#XH 6 N.P.n.n.N.n.-.%.-.&.x...8 0         eX] Z.A.G.I.I..XW.,X).i  X<X=X+X.XI.I.I.G.Z.F.A.] p         fX_  .x.%.-.n.n.N.T.$Xs ~ P.M.M.M.M.z.%.%.-.-.x.W 2 *       lX4.! ;.-.c.M.N.N.T.&XB n *X*XU.N.N.n.N.c.-.&.x. .8 q         _.U @.-.%.z.n.n.B.XXu.i m.P.n.n.N.n.-.%.&.&.;.%.L w   ",
"lX<.:.A.G.I.I..X=X-X<X`.- l.<X:X:X=X+XI.I.I.G.Z.A.A.` 0     IX4.! x.-.-.c.M.n.N.K.&XM Y B.n.M.M.N.v.%.%.-.-.-.;.E 1       qXP @.-.-.v.M.M.U.~.4XH p oXOXM.n.M.N.n.-.%.-.-.x. .5 %     hX' >.A.G.I.I..X:X-X<X_.*  X<X:X:X=X.XI.Y.I.A.Z.F.S./ &     KX<.R x.&.-.n.n.N.R.*X%X: [ -XL.n.n.M.N.z.%.%.-.-.;.U 1       p.T ;.-.c.M.M.U.oX~.&XB n *X;XoXoXU.n.n.N.v.%.&.x.Q 2 %     tXL o.;.&.z.n.n.L.E.,X0.q Q.*XN.n.M.N.n.-.%.-.-.;...6 - ",
"tX' >.G.I.I..X=X:X>X,Xw.l J.<X=X:X:X:X+XI.I.G.Z.A.F.=.p     lX<.R x.%.v.N.M.N.R.oX'.N ~ P.N.n.n.M.N.v.&.-.-.-.x. .5 @   LXi.T ;.-.z.M.M.U.oX;X%XA n *X;XR.N.N.n.N.n.-.%.&.x...8 #     eX] Z.G.I.I..X=X:X>X&X7.n #X>X=X:X:X=X.XI.I.G.Z.A.A.] 2     hX_  .x.%.c.M.N.oX;X@X'.z g.-XoXL.N.n.M.N.z.&.%.-.x.Q 2 @   SX4.! x.v.N.N.U.oX;XoX$XV [ *XoXoXoXoXR.n.M.c.-.%.x...8 #     _.U @.-.-.n.n.L.oX*X&XF n R.-XoXN.N.n.N.n.-.%.&.;.%.L w ",
"/ C.F.I.I.I.=X:X-X>X'.s  X<X=X=X:X:X:X:X+XI.I.G.Z.A.A.` w rX4.! x.-.%.c.n.n.R.*X%XN [ *XoXU.n.n.n.M.N.z.%.-.-.-.;.W < r._.U -.-.-.v.N.U.oX*X&XH c R.OXoXoXoXR.N.n.N.n.-.-.-.;. .< C uX' >.F.I.I.Y.=X:X-X,Xp.y  X>X=X:X:X=X:X=X.XI.I.F.Z.F.Z.^ a iX<.R x.&.-.n.N.R.oX*X$Xs [ *XoXoXoXoXL.n.n.N.v.-.-.-.;.U < 0Xi.T -.v.N.n.L.oXoXE.&XB m ;XE.oXoXoXoX;XR.N.M.c.-.-.x.Q < J yXL o.-.&.z.n.L.oX*X@X8.p Q.*XoXoXoXoXN.n.M.n.-.&.&.;...7 ",
"' Z.F.I.I..X=X:X-X5X`.= 3X8X>X=X=X:X:X:X:X.XI.I.G.A.F.E w rXs.| h.&.-.c.N.R.;XE.%XM [ -XR.oXU.N.M.n.N.v.-.-.&.@.j.! , r.eXW #.%.z.n.L.oXoXE.&XA c <X=XR.oXoXoXR.N.n.N.c.-.-.j.X., C hX6.b.G.I.I.+X:X=X-X5Xq.t 2X9X>X=X=X:X:X>X=X.XI.I.A.A.A.U a pX6. .@.%.c.N.R.oXoXOX$X: g.<XoXoXoXoXoXU.n.n.N.z.%.@.$.T < 0X`.Q $.c.N.M.U.oXR.*X&XN G 8X:XoXR.oXoXoX;XU.n.N.v.o.$.| , J uX` #.-.-.n.L.oXoXE.@X8.i 1X>XR.oXoXoX+XN.n.M.n.&.%.$.O.4 ",
"i.|.I.P.Y.-X:X=X<XVXwXt 3XFXVX5X=X=X:X:X-XOXP.P.F.}.XX6.p yXtXf.;.#.x.V.U.oXR.-X%XM ^.8X;XoXR.oXL.n.M.V.h.#.#.z.|.=.2 u.aXs.:.#.h.V.L.oXoX*X&XS n VXMXoXR.oXoX;XR.N.V.V.#.-.|.f.j C aX`.}.P.P.Y.-X-X=X5XBXt.y cXCXMX5X=X=X:X:X-XY.I.P.F.}.}.' d rXeXf.@.#.V.V.R.oXR.:X$Xs ].CX5XR.oXoXoXoXT.V.V.h.#.z.|.{ w 0XpX6.M.V.V.T.oXR.oX8XnXN G CXVX6XoXR.oXoX;XW.V.V.h.z.|.=.5 F jX'.z.#.h.V.L.oXoXE.4X7.c mXMX;XR.oXoXoX+XB.V.V.@.@.S.{.) ",
"= 9.@X@X@X4X-X<XNXFX`.% 3XFXCXVX5X-X-X-X,X4X@X@X@X'.u.0.z yXF V {.S.}.XX+XE.*X8XvXt ^.CXVX5X-X-XT.V.H.XX|.C.S.s.r.y.V r./.g s.}.XX}.XXE.~.9XBXD c ZXCX8X;XE.E.E.;X@XXXXX}.{.0.y.S S rXg 9.@X@X@X,X-X5XVXFXy.* 2XFXCXNX5X-X-X-X4X4X@X@X@Xi.r.7.N rXC C {.}.XXXX+XE.-XNXgX- ].FXVX5XE.E.E.~.:X#X}.XXH.s.r.y.z /.u.g $XXX}.@X;X~.5XCXnXM m CXZXZX8X*XE.E.oX,X@X}.XX{.r.y.C J yXa i.}.XX}.XXE.~.<XBX7.u AXCXMX>XE.E.E.*X@XXXXX}.{.e.r.w.",
"8 p 8.y.8.e.&XVXGXHXeXV vXGXBXHXBX5X,X4X'.u.0.q.q.v 1 $ * rX4., S y.0.u.$X:X6XGXgXD '.GXBXBXBX6X@X+X[.u.0.q.y.C 1 # O y.`., v y.y.u.'.@X5XZXnX8.3.BXZXBXMX@X@X,X%X0.u.q.y.F i 1 O A fXj p 0.y.8.w.4XBXGXBX).V bXGXBXHXBX4X4X4Xw.u.0.y.0.f 1 # a uX( < J y.u.0. X:XMXGXgXV ].GXBXBX4X@X,X,X'.u.0.q.y.V 1 $ @ yXi., C y.0.u.$X6XBXZXvXS 5.ZXBXBXHX6X@X,X$Xu.0.0.y.S 1 1 O J sX< d y.y.u.).@X4XBXHXq.C AXZXBXMX,X@X,X&Xq.u.0.y.8.p 1 # ",
"` *.n q i p 3.q.7.q.wX).7.7.7.7.0.7.q.0.l i p i w { M.E w rX4.! Y q i i S q.7.8._._.q.7.7.7.0.0.q.y.C 1 i w * Y h.! , 0X`.T W q i i V q.7.7.p.wXq.7.7.0.7.7.0.y.F i i i * 6 o.+., A hX] =.p i i l 7.q.7.q.wXt.7.7.7.7.0.7.q.7.c i p i p =.Z.U d pX) R k * i p F q.7.7.wX_.7.7.7.0.7.7.q.y.b 1 i i q E @.U < rXi.T } q i i C q.0.7._.`.q.7.7.7.7.7.7.y.S i i i * k @.| , J tXT Q i w i z 0.q.7.w.wXw.7.7.7.7.7.0.y.7.p i i q 3 ..O.4 ",
") C.H.D.;X Xn t u z ).g * c a a c c i p  X1XQ.D.C.A.Z./ r rX9.W z.z.c.Q.[ ; u u w.S @ c u u u u i * } m.&.....@.x.E < r.qXE ..&.z.L.g.t a i F 7.- u c u c u p * m Q.c.z.k.o.x. .< B pX' z.N.L.1X Xc s i V p.t i c u u c c i c  X1XL.D.C.F.S.^ y pX<.Q o.k.m.Q.n ; u c t.V * c u u c u i q g.L.z.z.O.@.;.U < 0Xp.E @.z.Q.oX[ t u u 7.3.@ u a u u c u * [ oXQ.z.k.o.x.Q < J tX/ ..o.z.L.g.u u u Z y.= i c u c a p q n J.m.z.k.o.;...8 ",
"wX_ Z.+X-X<XmXmXmXAX`.* ].AXmXmXmXmX1XoX>X>X+XY.G.A.] w     hX( | K.P.W.R.7XmXmXgXs 5.AXmXmXmX1XQ.D.n.P.V.;.x.x.W 2 @     4.T V.B.Y.R.1XmXmXnXA c mXmXmXmX7XQ.Q.oXW.B.V.x.b. .6 #     _.` F.+X-X<XmXmXmXAXt.; 3XAXmXmXmXmX#XoX>X>X.XI.G.Z.` 0     tX^ +.B.B.W.R.7XmXmXsXe ^.AXmXmXmX1XQ.Q.oXT.B.n.;.;.E 1     zX<.! B.W.*X5XmXmXmXvXN m AXmXmXmXmX7XQ.oX-XW.B.n.b.Q 5 @     i.P b.B.T.E.#XbXmXnX7.i 2XAXbXmX7XQ.Q.Q.OXP.B.x.x...8 0 ",
"jX<.=.H.Y.:XNXCXCXFX`.e 3XFXCXCXCXCX5X-X=X.XI.G.A.F.] w     PX4.E v.M.U.*X5XZXCXgXs ^.FXCXZXFX6X*XW.M.n.z.%.&.x.Q 2 %     qXU ..x.L.OX5XCXCXBXA m CXCXZXCX8X*X*XOXn.M.n.%.x...5 %     hX) *.I.Y.,XNXCXCXFXt.t bXFXCXCXFXCX<X-X=X.XI.A.A.A._ 0     JX<.W -.c.R.-XMXCXCXgXe ].FXVXCXCX5X*X-XT.n.N.z.%.x.E 1       i.U -.M.L.5XVXCXCXnXN G CXCXVXZXFX8X*XoXU.M.c.%.x. .2 %     tX^  .z.L.E.<XCXCXBX7.c AXCXVXCXNX-X*X*XM.n.n.&.;.%.8 & ",
"  wX_ x.I.+X>XMXCXZX_.- 3XFXVXVXZXMX,X=X.XI.I.F.A.C._ w       fX( R B.U.oXoX6XCXgXe ^.CXMXBXMX4XR.L.M.v.%.-.-.&.E 1         4.P b.L.R.,XMXVXnXV n CXVXMXBX6XoXoXU.n.N.v.-.-.Q 5 &       _.` Z..XOX<XVXCXBXq.= mXCXVXVXVXMX,X=X.XI.I.A.A.>.^ q       tX^ | B.U.oX6XVXVXsX- ].CXMXBXBX4XR.oXN.M.n.z.-.%.U 1       jX<.T b.L.R.5XZXVXvXM G CXVXMXMXMX5XoXU.M.M.z.-.-.W 2 %       i.P ;.L.R.1XMXVXBXF u AXZXMXBXMXoXoXU.n.M.c.-.-. .6 * ",
"  jX6...F.I.=XMXCXCXsXx ].ZXVXZXZX5X-X=X.XI.G.A.F.] w         KX9.T x.B.U.R.5XVXvXV 5.AXCXVX5XR.L.M.M.z.%.-.x.Q 2 *         qXU o.B.L.R.5XCXBX7.b cXVXVXBX6XoXU.M.M.v.&.x...6 *         hX2.%.F.Y.>XMXCXZX`.x ].ZXVXZXVX,X=X=X.XH.A.A.A.` r         SX4.! b.N.U.oXMXFXgXN ^.AXVXBXMX,XR.L.M.n.z.-.x.E 2           p.U o.n.L.5XVXCXnXS G bXVXMXBX6XoXoXU.M.v.-.x. .5 *         tX/ +.B.L.R.,XCXBXw.z 3XVXVXBX6XoXU.M.M.c.-.;.%.7 0   ",
"    wX2.*.Y.-X>X8XNXZX`.t 3XFXCXMX,XOX.XI.G.Z.F.Z./ w           tX<.W x.P.U.oX5XVXgXg ^.VX4XR.L.M.M.z.%.&.;.;.U 1             4.U o.B.T.1XMXNXnXS m ZXCX6XoXU.M.M.v.&.-.x.Q 2 *           _.' :..X-X,XMXNXZXt.u cXFXCXMX,XOX.XI.A.Z.F.C.^ *           eX) Q b.K.U.5XMXVXgXy ].FXMX,XR.L.M.n.z.%.;.-.U 0             4.E @.W.E.4XMXVXnXN G CXCXVX5XR.U.M.z.%.;.;.W 2 -           i./ ..B.T.oX6XNXBX7.c AXFX6X;XU.M.n.c.&.-.x. .6 -   ",
"      _.2.k.D.I.-X>XMXeX% %XZXMX,X=X.XH.A.A.G.S.` w               yX<.W X.c.Y.*X9XvXs } -XL.M.n.n.z.%.-.x.-.E 2                 4./ +.z.B.T.<XnXA c MX6X+XU.N.M.v.-.;.x.Q 5 *               p.2.k.D.Y.=X<XMX/.% 2XVX8X>X=X.XH.A.F.G.C./ r               qX<.W O.n.K.W.8XgX- [.NX1XR.L.M.n.z.-.x.-.U w                 4.] O.z.T.OX<XnXM m NXMX4XoXU.n.z.-.x.;.W 2 *               e./  .k.B.T.-XBXu.q 6X8XoXU.M.M.c.-.;.x. .6 q     ",
"        wX6.' =.c.P.+X$Xz g.+X.XI.Y.I.G.F.S.C.` r                   eX4.^ W ..L.*X&XC Y m.B.N.c.;.;.x.%...E 2                     i.( ` +.h.B.XX7.l k.B.N.N.N.M.x.-.o.Q 5 -                   `.2.' *.c.P.+X'.x l.+X.XY.Y.I.G.A.S.>._ q                   wX<.^ Q X.c.P.$XN } N.B.N.M.N.c.;.%...U 0                     4.^ ` +.z.B.#XS n Q.P.N.V.N.n.x.%.o.W 2 -                   i.( /  .O.V.XXi.c k.B.B.N.M.V.x.-.o. .6 &       ",
"          y.w.<.' =.@.C.).= ~ x.*.>.>.>.C.` j w                       t.t.,.^ ] +. .{.N 9 X. . . . .%.U 5 2 %                       t.4.( `  .| f.S < |  . . . .o.Q 6 2 -                       y.e.<.' *.-.|.w.1  .:.*.>.>.C.>./ j w                       t.y.,.^ Q |  .'.s P X. . . . ...U 5 w                       t.t.<.^ ` | | {.A 6 X.|  . . .o.W 6 2 -                       y.4.( /  .| =.8.1 R +. . . ... .8 5 *         ",
"          X = 7.p.2.' 6.eXB ( 2.<.( ) ( I w - +                       + % S ).<.I ^ '.J p ( ( 8 j j 9 2 - % o                       + N t.4.^ I 6./.d ^ _ I 8 ^ 8 2 - % .                       X s q.i.2.' 6.wXN ( 2.) ^ ) ( j q - X                       + - F t.<.^ _ `.S j _ ( 8 I j 9 w - @                         @ C /.4.^ ^ s.r.p ( ( j 8 I 9 2 - % .                       X a y.9.( I 6.qXg ^ _ ^ 8 ^ 8 5 * - +         ",
"          b q o - 8.y.q.t.t.q.t.q.g S z @ + o .                       V p X + C y.q.t.t.w.y.t.N C C @ @ o .                         f @ o x q.q.y.t.w.q.p.S z S * @ o . .                       v * o = 7.y.q.t.w.q.t.7.g F a @ . o .                       b y . + S y.q.t.t.q.y.q.z S V @ + o .                         d X o V y.q.y.t.q.q.t.D V S % @ o . .                       l # o a q.q.q.t.w.q.t.F g F e @ . . .         ",
"          eX1.d e = t - + & & * - + % % o + @ X                       fX9.f y = t = + & * - = + % - + . @ + .                     kX).b y q t t + % * - = % + - + . @ @ .                       wXZ a e = t % @ * - * - + % @ o + @ X                       dX3.d y = y = + & * * * + % % . X @ + .                     xXi.z y q t t + % * * = % + - + . @ @ .                       _.D y q t t % @ * - = - + - + . + @ .         ",
"        SXfXeX`.4.Z Z f q & q * & @ & * @ & = @ .                   LXkXeXwXi.Z Z b q & * * & @ @ * @ @ q @ .                     zXeXeX_.,.Z Z y * & q * # @ * & @ q & X .                   SXfXeX`.4.Z Z d * & q * & @ & * @ * * + .                   JXxXeXwXi.Z Z v q & * * & @ @ * @ & q @ .                     kXeXeXa.,.Z b i & * q & @ @ * % @ q % . .                   zXdXeX`.3.Z Z p * & q * & @ * & @ * * + .       ",
"        kXfXeX'.s.4.Z ,.f q p q @ * q @ & @ + + X                   zXkXsX`.s.4.,.,.b q y y @ & q & % & + + + .                   kXsX`.s.i.1.,.Z r q y # @ q * @ * @ + + .                   jXfXeX'.s.4.Z ,.p q p * @ q q @ & @ + + .                   zXxXeX`.s.4.Z ,.b q y q @ * q @ & % + + +                   zXkXsX`.s.i.,.,.n w i y @ & q & @ & + + + .                   kXdXeXs.s.3.Z ,.p 0 p & @ q * @ & @ + + .       ",
"        eXeXi.`.i.b f D S F C v g @ . . X . . . .                   eXeXi._.a.Z f b Z F S v z * . . . . . . .                     eX_.i.`.3.v b Z S S V z t . . . X . . . .                   eX`.i.`.4.b v D S F V v a + . . X . . . .                   eXeXi.'.i.Z f D S F Z v x % . . X . . . .                     sXa.a.'.,.f b Z F S V z = . . . X . . . .                   eX`.i.`.4.b v Z S F V v y X . . X . . X .       ",
"                        jXhX_._.w.                                                  lXhXyXp._.C                                                   pXtXp.`.3.                                                  hXuX_._.9.                                                  jXhXqX).).z                                                 lXhXeXp._.S                                                   pXuX)._.7.                      ",
"                      SXS t d d d @                                                 y.t g d d * o                                               tXa a d l t .                                               lXC y g d a @                                               PX8.t d d d %                                                 qXy g d d q .                                               fXz a g d y +                     ",
"                      ).y         q @                                             tXV         q q                                             jX3..         q @                                             w.q         q @                                             yXz         e *                                             fXS           q X                                             7.#         q @                   ",
"                    lXN           b y                                           PX8.          b f                                             yX@           l q                                           pXa           v y                                           JXS           b d                                             /..           l =                                           rXe           l e                   ",
"                    hXN           b y                                           SX8.          b f                                             qX#           v q                                           tXg           v y                                           lXS           b d                                             /.O           v q                                           yXt           v y                   ",
"                    wXV           b y                                           fX3.          b f                                             t.e           v q                                           _.z           b y                                           eXS           b d                                             e.*           v *                                           ).a           v e                   ",
"                    jXg           d p                                           LXJ >         p d d                                           qXo           d p                                           uXe           p y                                           SXC           p d f                                         PXy.>         y d p                                           tX@           p p                   ",
"                  LXJXC * a s a y & l b                                       LXPXr.* a s y a * p b                                         PXrXt t a s a q q b v                                       PXzXN = g s a t * v b                                       LXPXJ & a a a y & d b                                         PX0X= s s s a * y b v                                       PXhXa e g s a e q b b                 ",
"                  SXPXlXtXhXfX_.D f b y                                       SXPXzXtXfXfXwXS f b d                                         LXSXfXfXhXeX7.l v l q                                       SXLXjXtXhXdXp.b l v y                                       SXPXlXtXhXfX`.Z f b p                                         PXSXfXfXhXeX3.f b f q                                       SXJXhXdXhXsXw.v v v t                 ",
"                  JXPXxXeXfXsXZ y f p *                                       JXIXkXsXfXfX4.p d f e *                                       PXDXdXsXxXp.l p l y =                                       JXLXfXeXxXwXD y l y *                                       JXIXkXeXfXdX3.y f d q                                         IXzXsXdXfXe.d d f t *                                       JXDXfXsXxX`.b y l y *                 ",
"                  lXqX3.V 3.V # @ * * =                                         eXe.D S S q @ * * *                                         uXt.S C 3.p @ & * * q                                       jX_.3.V 3.v @ % * & q                                       SXyX9.D 3.Z & @ * * *                                         tXw.Z Z 3.y @ & * *                                         hX).3.D 3.f @ & * * q                 ",
"                    t a @ t & @ & + @                                           q a & = t @ & @ @ *                                           a e & t @ & @ @ &                                           y s @ t % @ % + @                                           t a @ t = @ & + @ *                                         q a = & t @ & @ @ &                                           y t @ t @ @ @ + &                   ",
"              LXfX3._.).3.e.D f f y d y q q                               PXkX4.w.wX3.7.3.f f p d p q q                                 DXp.3.wX7.3.7.v f d p d q q q                               LXeX3._.p.3.e.D f f y d y q q                               PXkX3.p._.3.e.S f f p d y q q                                 DXe.9.wX3.3.3.l l d p p q q q                               LX`.3.`.w.3.9.b f f p d e q q             ",
"              pXyX_.).S 7.S l t t d y = e =                               lXtX)._.3.3.3.b a e d d t t t                                 uX_._.q.S 7.D d t a f t e t e                               pXqX_.t.Z 7.Z l t t d y = e =                               jXtX_._.F 3.3.b y t d d t t t                                 uX).qX7.3.3.b d t d d t t t e                               uX_._.w.S 7.D l t y l t e t =             ",
"              V 0 p r w z t q w q r w w q w                               F 0 r r & d a # 0 & q q & 0 q *                             0Xw w y & y d & 0 & 0 q & 0 w *                               f w p r r z q q w w r w w r w                               C # r q & d y # 0 & q 0 & 0 q *                             u.0 e r & y d & 0 & 0 q & 0 w *                               y 0 y 0 e x * & & 0 q 0 0 q 0             ",
"            fX) L / U ) w.s 8 ` / / / / / / p                           lX<.4 7 9 7 4.B < L L 7 7 L L L 5 -                           i.4 9 7 4 <.J $ 7 L 7 7 L L L 8 &                           tX/ L / U ' e.= L ` / / / / / / p                           hX( 4 7 9 L i.x < L L 7 7 7 L L 2                           KX4.4 9 9 4 6.A < L L 7 7 L L L 5 -                           _.7 4 7 4 ) 7.# 9 L 7 7 L L L 8 0           ",
"          uX6.>.A.Z.Z.G.`.s { F.S.Z.Z.Z.A.Z.] w                       lX4.Q -.%.o.@.$XB Y $.@.o.%.%.%.-.Q 2 %                       i.W @.-.%.#.|.J 3 o.-.%.%.%.%.-. .8 &                       tX{ C.A.Z.Z.}.).t =.F.S.Z.Z.Z.A.Z.` r                       hX<.| -.%.o.-.$XN Y ;.%.%.%.%.-.-.W 2                       JX9.W -.%.o.#.{.A 6 @.@.%.%.%.%.-. .5 -                       _.E o.-.%.#.|.y.1 ..;.%.%.%.%.-...L &         ",
"        uX6.:.F.A.A.F.H.`.: { I.G.F.A.F.F.F.A.] p                   jX4.R @.x.;.;.$.$XB k b.;.;.;.;.;.;.;.Q 5 q                   i.E o.x.;.-.#.|.J 3 @.x.;.;.;.;.;.x. .8 0                   tX{ :.F.A.A.F.XX_.- *.H.F.A.A.A.F.F.Z.` p                   hX<.R @.-.;.@.j.$XM Y b.;.;.;.;.;.x.;.W 2                   JX9.E @.;.-.;.j.|.A 6 b.x.;.-.;.;.;.x. .5 q                   _.U X.x.;.-.#.S.y.# ..b.;.;.;.;.;.x...L w       ",
"      uX6.:.F.A.A.F.I.XXi.d k..XI.G.A.Z.Z.A.F.A.` q               jX4.R @.-.&.%.o.:.'.N Y ;.-.-.&.&.&.&.;.x.E 1                 i.E o.;.-.&.@.-.{.S k -.-.%.-.-.&.&.-.x. .2 *               tX{ :.F.Z.A.A.I.#X9.l D..XI.G.A.Z.Z.Z.F.Z./ *               pX<.R ;.-.&.%.o.*.'.x W x.%.&.-.&.&.&.;.;.U 1               UX9.E #.-.-.-.v.N.{.A Y N.N.v.-.-.%.&.-.x.Q 2 -               _.U X.x.-.&.%.@.{.7.6 o.-.%.-.-.&.&.-.x...6 -     ",
"    fX6.:.F.Z.A.I.Y..X'.s { .XI.I.I.I.G.Z.Z.A.F.{ p             jX6.R @.-.&.%.-.x.$XB Y x.z.-.%.&.&.-.-.-.x.Q 5 q             a.E #.;.&.%.-.@.|.J 6 m.M.-.-.%.&.-.-.&.x...8 0             eX{ :.F.Z.G.I.I.XX).y l.Y.I.I.I.I.G.Z.Z.F.A.] p             hX<.R ;.-.%.%.@.x.$XM } B.v.-.-.%.-.-.-.-.x.W 2 *           lXi.E #.;.%.v.n.V.|.A k M.N.M.n.M.c.-.%.&.x. .6 q             _.U X.x.&.%.&.@.|.0.p k.M.-.-.%.%.-.-.&.;.%.L w     ",
"  lX2.%.F.Z.A.I.I.I.+X`.= l.OX.XI.I.Y.I.G.Z.Z.A.Z.` w         KX9.T @.-.%.%.-.c.N.$XM Y K.M.v.-.&.%.&.-.-.-.;.E 1           qXP #.x.%.&.-.z.V.|.H 3 B.N.M.c.-.-.%.-.-.-.;. .2 *         hX' :.F.Z.G.I.I.P.@Xt.= J.+X.XI.I.Y.I.G.Z.Z.F.S./ *         JX<.! x.-.%.-.-.c.N.$X: ~ K.n.n.v.-.-.%.-.-.-.;.U 1           p.U #.;.%.v.M.M.V.&XB k P.N.n.n.M.N.c.-.%.-.x.Q 2 -         tXU X.x.&.&.-.z.V.}.u.1 c.B.n.n.-.-.%.&.-.-.;...6 -   ",
"  fX' :.F.A.I.I..XY.>X`.s l.<X=X+XY.I.I.I.G.Z.A.F.{ p         jX<.R x.%.-.-.c.V.N.$XN Y K.N.n.n.v.&.%.-.-.-.x.Q 5 *       SXi.T ;.-.%.z.M.M.B.#XH 6 N.N.n.n.M.c.-.%.-.&.x...8 q         eX] Z.A.G.I.I..XY.,X).t  X<X=X.XY.I.I.I.G.Z.F.A.] p         hX_  .x.%.-.c.n.V.T.$Xs ~ P.M.M.M.M.z.%.&.-.-.x.W 2 *       zX4.! ;.-.v.M.N.N.T.&XB n *XoXU.N.M.n.N.c.-.&.x. .8 q         _.U @.-.%.z.n.n.B.XX0.i m.P.n.n.n.n.-.%.-.&.;.%.L w   ",
"lX<.*.A.A.I.I..X=X-X<X`.: l.<X:X:X=X+XI.I.I.G.Z.A.Z.` 0     IX4.! ;.-.-.c.n.n.N.K.&XM Y B.M.n.N.N.v.&.%.-.-.-.;.E 1       qXU @.-.&.z.n.M.L.E.4XH p oXOXn.n.M.N.c.-.%.-.-.;. .2 %     jX' >.A.G.I.I..X:X-X<X).*  X<X:X:X=X.XI.Y.I.A.Z.F.S./ &     KX<.R ;.&.-.c.M.N.R.*X%X: [ -XL.n.n.N.n.z.%.%.-.-.;.U 1       p.T @.-.v.M.M.U.oX~.&XB n *X*XoXoXU.n.n.N.v.%.-.;.Q 2 %     tXU o.-.&.z.n.M.L.E.,X0.q Q.OXN.n.M.N.n.-.%.-.&.;...6 - ",
"tX' >.G.I.I..X=X>X>X,X).f J.<X:X:X:X=X+XI.I.G.Z.A.F.{ 2     zX<.R x.%.v.N.M.M.R.oX$XN } P.M.n.n.M.N.v.-.&.&.-.x.Q 5 @   PXi.T ;.%.z.n.M.L.oX*X%XA n *X;XR.N.N.n.N.c.-.%.&.x...8 #     eX] Z.G.I.I..X=X:X-X&X9.l #X<X:X:X:X=X.XI.I.G.Z.A.A.] w     jX_  .x.%.c.M.N.R.;X@X'.x g.-XoXL.N.n.M.N.z.%.%.-.x.W 2 O   JX4.! x.v.M.M.U.oX;X;X%XV [ *XoXoXoXoXU.n.M.c.-.%.x. .6 #     _.U @.-.-.n.M.L.oX*X&X3.n oX-XoXN.N.n.N.n.-.%.&.;.%.L w ",
"/ >.F.I.I.I.=X:X-X>X'.s g.>X=X=X:X:X:X:X+XI.I.G.Z.A.Z.` w rX4.! ;.-.%.c.M.n.U.*X%XN [ *XoXU.n.n.n.N.N.z.%.&.-.-.;.W < r._.U @.-.-.v.N.L.oX*X&XH c R.OXoXoXoXR.N.n.N.c.-.-.-.;. .< C uX' >.F.I.I.Y.=X:X-X,Xa.u  X>X-X:X:X=X:X=X.XI.I.G.Z.A.S.^ a iX<.R ;.&.-.n.N.R.*X*X$Xg [ *XoXoXoXoXL.n.M.N.z.-.-.-.;.U < 0Xi.T -.v.N.M.L.oXoXE.&XA n ;XE.+XoXoXoXoXU.M.M.c.-.-.;.Q < J yXU o.-.&.z.M.L.oX*X@X0.p J.*XoXoXoXoXN.n.N.n.-.&.&.;...7 ",
"' Z.F.I.I..X=X:X-X5X`.= 3X8X:X=X=X:X:X:X:X.XI.I.G.A.F.E w rXi.R j.&.-.c.N.U.oX*X%XM [ -XR.oXU.N.M.n.N.v.&.&.-.@.j.! , r.eXE @.%.z.n.L.oXoXE.&XA c >X=XR.oXoXoXR.M.n.N.c.%.%.j.+., A hX6.b.G.I.I..X:X-X-X5Xq.; 2X9X>X=X=X:X=X>X=X.XI.I.A.A.A.U p pX6.| ;.%.c.N.R.oXoXOX$X: g.<XoXoXoXoXoXL.n.n.N.z.%.@.$.T < 0X`.W $.c.N.n.U.;XoX*X&XN G 8X:XoXR.oXoXoXoXU.n.N.v.o.j.| , J tXE #.-.-.n.L.oXoXE.@X8.i ;X-XR.oXoXoX+XN.n.N.n.-.%.$.O.4 ",
"a.|.P.P.Y.-X:X=X<XMXwXe 3XCXMX5X-X=X:X:X-XW.P.P.F.}.}.{ p rXuXf.@.#.x.V.U.oXR.-X%XM ^.9X;XoXR.oXL.n.M.V.x.#.#.:.S.=.2 u.jX[.-.#.h.V.L.oXoXE.&XS n VX8XoXR.oXoXoXR.N.V.V.@.-.S.>.6 V aX`.}.P.P.Y.-X-X=X<XBXt.s cXCXMX,X=X=X:X:X-XY.I.P.F.}.}.' p rXtX=.@.#.V.V.R.oXE.=X$Xs ].CX4XR.oXoXoXoXT.V.V.h.#.z.|.] 1 0XpX6.n.V.V.T.oXoXoX5XnXV G CXVX6XoXR.oXoX;XW.V.V.c.-.S.=.2 S jX'.>.#.h.V.L.oXoXE.4X7.c mXMX;XR.oXoXoX+XB.V.V.@.@.S.C._ ",
"t e.@X+X@X,X-X<XNXFX`.- 3XFXCXVX5X-X-X-X,X4X@XXX@X'.y.q.z yXF C {.S.}.XX+XE.*X8XvXt ^.CXVX5X-X-XT.V.H.XX}.C.S.{.y.t.V r./.N s.H.XX}.XXE.E.9XBXD c CXCX8X;XE.E.E.*X@XXXXXH.{.q./.S S rXN e.@XXX@X,X-X<XNXFXw.* 2XFXCXNX<X-X-X-X,X4X@XXX@X).y.7.N rXA S |.H.XXXXW.E.-XMXgX- ].FXVX5XE.E.E.~.;XXX}.XXZ.s.y.t.v /.r.N $X.X}.@X;X~.5XCXnXM m CXCXZX8X*XE.E.oX,X@X}.I.{.y.t.Z J yXg s.H.XX}.XXE.E.<XBX8.u AXCXMX-XE.E.E.*X@XXXXXH.|.w.y.w.",
"6 p 7.t.0.w.4XMXGXGXeXN vXFXBXGXBX5X,X4X'.0.w.y.t.v 1 # = rX<., F t.y.q. X:X6XGXgXV '.FXZXBXBX6X@X+X{.r.y.y.t.Z 1 * O y.`., V t.y.0.'.:X5XZXnXS G BXZXBXMX@X@X:X&Xy.y.w./.3.i $ O A fXj p q.t.0.).4XZXFXHX).V bXFXBXGXBX4X,X4X).0.w.t.w.d 1 # a uX( < 8./.y.q.#X:XMXGXgXN ].FXBXBX4X@X:X:X'.0.q.y.t.V 1 # @ yXi., C t.y.0.$X6XZXZXvXS 5.ZXBXBXBX6X@X:X%Xq.y.w./.F w q O J eX< d t.t.0.'.@X4XBXHXq.C AXZXBXMX,X@X:X#Xw.y.w.t.7.y 1 * ",
"` =.l = i p 7.t.q.w.wX).e.q.q.q.y.e.y.q.z i i i q { c.U w rX6.! ^ = i i F t.q.q._._.q.q.q.y.y.y.y.t.C 1 i q * ^ @.T , 0X`.T W = q 1 V t.q.q._.wXw.e.q.w.q.e.q.t.3.i w i = 6 .. ., A hX]  .p q i d 9.t.e.t.wXp.q.q.q.q.y.e.t.q.c i i q i =.c.L p pX) ! n * w i 3.t.q.q.`._.e.q.q.y.q.q.y.t.V 1 i i = } #.U < yXi.T } = i q C t.y.q._.`.w.w.q.q.y.w.e.t.S i i i * k @.R , J tXT W i q 1 z w.w.q.p.wXt.q.q.q.y.e.q.t.7.u q i = p  ...4 ",
"_ C.D.D.oX Xv ; i x ).x * u u u u a t i g.1XJ.D.z.A.G.` r rX4.Q z.k.k.J.[ = t t e.S @ u u u u y i = } c.O. . .o.x.W < r.wXE ..O.k.D.{ t t q F q.* i u u u u i * n J.z.k.O...x. .2 B uX' z.D.D.;X Xc t q V ).a ; u u u u a q p  X;XD.D.z.F.Z.^ y pX<.Q o.*.k.J.n = t u w.V @ u u u a u i q g.D.k.k.O.@.x.U < 0Xa.E z.k.J.Q.[ ; t q 7.3.- u u u s u u * [ Q.J.k.*.o.b.Q < J tX/ X.O.k.m.g.t t ; C w.t q u u u u i * c J.m.k.*...x...8 ",
"_.) Z.+X-X<XbXcXmXmX`.* ].AXbXbXbXbX#X#X>X<X+XY.H.A.] w     hX( | K.P.W.R.7XmXbXgXs G mXbXbXbX1XJ.l.n.P.V.;.x.x.W 2 @     4.T V.B.W.R. XcXcXvXA c cXbXbXbX7XJ.J.Q.W.P.B.x.b...6 #     _.` F.+X-X<XbXcXbXbXt.= 3XmXbXbXbXbX#X#X<X,X.XY.G.Z.` w     tX^ X.B.B.W.#X7XbXbXsX= ^.mXbXbXbX#XJ.J.oXY.B.V.x.;.E 2     kX<.! B.W.*X5XcXcXbXvXN m mXbXcXcXbX7XJ.R.-XW.B.V.b.Q 5 @     e.P b.B.T.R. XcXbXnX7.i 3XmXcXbX7XJ.J.Q.OXP.B.b.x...8 0 ",
"jX<.*.I.Y.:XNXCXCXFX`.e 3XFXCXCXFXCX5X-X=X.XI.G.A.F.] r     PX4.E v.M.U.*X8XCXCXvXs ^.FXCXZXFX9X*XW.M.n.z.%.&.x.Q 2 %     _.U o.z.L.E.5XFXCXBXA m CXCXZXCXMX*X-XOXn.n.n.%.x...5 %     hX) >.I.Y.,XVXCXCXFXp.u mXFXCXCXFXCX<X-X=X.XI.A.A.A._ 0     JX,.W -.c.R.-XNXFXCXgXt ].FXZXCXCX5X*X-XT.n.N.z.%.x.E 1       e.U z.M.U.5XZXCXCXnXN G CXCXZXZXFX8X*X*XU.M.c.&.x. .2 %     yXU ..z.L.E.<XCXCXBX7.c AXCXZXCXNX-X*X*XM.n.n.&.;.%.8 & ",
"  wX` C.I.OX,XMXCXZX_.- 3XFXVXVXVXMX,X=X+XI.I.F.A.C.` r       uX( R B.U.oXoX6XCXgXe ^.CXMXBXVX4XR.L.M.v.&.-.-.-.E 2       zX4.P b.T.R.,XMXVXnXV n CXVXMXBX6XoXoXU.n.N.c.-.-.Q 5 #       _.` Z..XOX<XVXZXBXq.; mXCXVXVXVXMX,X-X.XI.I.A.A.C./ q       eX^  .B.R.oX6XVXZXsX- ].CXMXVXBX,XR.oXN.M.n.z.-.%.U 1       hX<.T b.L.R.5XBXVXvXM G CXVXMXVXVX5XoXU.M.M.v.-.-.Q 2 %       e.P x.L.R.1XMXVXBXd.c AXZXMXBXMXoXoXR.n.M.c.-.-. .6 * ",
"  jX6...F.I.=XMXCXCXeXg ].ZXVXZXZX5X=X=X.XI.G.A.F.] p         KX4.T x.N.U.R.5XCXvXV 5.AXZXVX5XoXL.M.M.z.%.-.x.Q 2 *         qXU @.B.L.R.5XCXBX3.b bXVXVXBX6XoXU.M.M.v.&.x...8 *         hX2.%.G.Y.>XMXCXGX_.x %XCXVXZXVX,X=X=X.XI.A.A.A.` w         SX<.! V.B.U.oXMXFXgXx ^.VXMXBXMX,XR.L.M.n.z.-.x.W 2 =         p.U #.n.L.5XVXCXnXS G mXVXMXBX6XoXoXU.M.v.&.x. .5 *         yX^ X.B.L.R.,XCXBXw.x 3XVXVXBX6X;XU.N.M.c.-.;.%.L 0   ",
"    `.2.*.Y.-X,XMXVXZX_.s 3XFXCXMX,X=X.XI.G.Z.F.Z./ q           tX<.W x.P.U.oX6XVXgXg ^.CX4XR.L.n.n.z.%.&.;.;.E 1             4.U @.B.T.1XMXVXnXS m ZXCX6XoXU.M.M.c.&.-.x.Q 2 *           _.' :..X-X,XMXVXBXw.d cXFXCXMX:XOX.XI.A.Z.F.C.^ 0           eX) Q b.K.U.5XMXZXsXs ].FXMX,XR.L.M.n.z.%.;.-.U 1             4.E h.W.OX5XMXVXvXV G CXZXBX5XR.U.N.v.%.-.x.W 2 -           e./ ..B.K.oXMXNXBX7.x AXFX8X;XU.N.M.c.-.-.x. .6 -   ",
"      p.2.k.D.I.=X<XMXeX+ %XZXMX,X=X.XI.A.A.F.Z.` w               qX<.W O.c.W.*X8XvXs } -XU.n.n.n.z.%.-.x.;.E 2                 4.U +.v.B.T.<XnXA c MX6XoXU.N.M.v.-.;.x. .5 q               p.' v.D.Y.-X<XVX/.% 2XZXMX,X=X.XH.A.A.G.C./ r               _.) Q O.n.P.W.8XgX- [.VX,XR.L.M.n.z.-.x.-.U 2                 <.W !.z.Y.oX5XnXM m NXMX5XoXU.n.z.-.x.;.Q 2 *               9./  .z.B.T.>XBXu.* 6X8XoXU.N.M.c.-.;.x. .8 q     ",
"        `.2.' *.n.I.+X$Xx g.=X.XY.Y.I.G.A.Z.C.` r                   eX<.I Q O.L.*X&XC Y M.B.M.c.x.;.;.%.o.W 2                     i.^ ` +.h.B.#X7.l D.P.N.N.N.M.x.-.o. .5 -                   `.2.' *.n.P.@X'.x  XOX.XY.Y.I.G.A.Z.C./ w                   wX<.^ Q O.V.P.$XN } L.B.N.N.N.c.;.%.o.U 1                     4.^ ` X.v.B.#XS n U.P.N.N.N.n.x.-.o.Q 2 -                   i.( /  .h.V.XXw.d k.P.B.N.N.M.x.-.%. .8 &       ",
"          t.w.<.' *.;.C.).t ~ C.:.C.>.C.C.` I w                       /.t.,.I Q +.+.{.N 9 .. ... . .%.E 9 2 -                       t.4.^ ` +.| f.S < | +. ... .o.Q 8 5 &                       t.e.<.' *.-.|.w.1 =.x.>.C.>.C.>._ j r                       t.t.( ^ Q +. .'.s P X. ... ...o.U 6 2                       t.t.<.^ ` X.| {.A 9 O. . ... .o.Q 9 2 -                       t.4.^ /  .| =.8.1 R X. ... .o. .7 5 q         ",
"          + t 0.p.2.' 2.eXN ( 2.' ( ) _ ^ w - +                       @ * S ).<.I ^ '.J p / ^ 8 I I 8 2 - % o                       % N ).4.^ L 6./.y ^ _ I 8 I 8 5 * % .                       @ a y.i.2.` 6.wXg ( 2.) ( ) _ ^ r - X                       @ = 8.p.) I / `.A 5 / ^ 8 I 8 9 2 - @                         - C ).4.^ I s.0.p / _ 8 8 I 8 2 - % .                       @ x t.9.^ L 2._.g I _ I 8 ^ 8 6 q - +         ",
"          l q . = 7.t.w.).t.q.p.q.g F z @ + o .                       b y X + S t.q.p.).w.y.t.V C C @ @ o .                         d @ + N w.q.t.).w.q.p.S z S * @ . . .                       f & . t q.y.y.).t.q.p.7.g 3.g @ . o .                       v q X - F t.q.).p.w.t.y.z S V @ + o .                         p @ + V y.q.t.).w.q.p.D V S & @ o . .                       f @ . a q.q.y.).t.q.p.3.g 3.e @ . . .         ",
"          eXS y q = s = @ = = = = + - % o X @ X                       fX9.d q = s t % * = = ; @ % * + . @ + .                     kXp.v t = t t % & = = ; - + = + . + @ .                       `.D y q ; s - % = = = * + - @ o + @ .                       dX3.y q = a = % = = = = @ - - . X @ + .                     xXe.f q = t t % * = = ; % % * + . + + .                       _.b t q t a - % ; = ; - + * @ . + @ .         ",
"        SXfXeX`.4.b Z d * # * & # @ @ * @ & q @ .                   LXkXeXwXi.Z Z b * & # * # @ @ * @ @ q @ .                     zXeXwX_.,.b b e & & * & @ @ * & @ q & X .                   SXfXwX`.4.b Z p * # * & # @ & * @ * * + .                   JXxXeX`.9.b Z l * # * * # @ @ * @ & q @ .                     kXeXwXi.Z Z b q & & * # @ @ * @ @ q & . .                   zXsXwX_.1.b Z y & # * & @ @ & & @ * * + .       ",
"        kXfXeX'.s.4.,.,.f 1 p q @ * q @ & @ + + X                   zXkXeX`.s.4.,.,.b q y y @ * e & & & + + + .                   kXsX`.s.i.3.,.Z r q p # # q * @ & @ + + .                   jXfXeX'.s.4.Z ,.p q p * @ q q @ & @ + + .                   zXxXeX`.s.4.,.1.b 1 p q @ * e % & % + + +                   zXkXsX`.s.i.1.,.Z w i y @ & e & % & @ + + .                   kXdXeXs.s.4.,.,.p w p * @ q = @ * @ + + .       ",
"        eXeXi.`.i.b l D C S V z s @ . . + . . . .                   eXsXi._.a.,.f D C S Z z g - X . X X . . X                     eX_.i.`.3.v b Z S S v z = X . . + . . . .                   eXwXi.`.4.b v D C S V z y + . . + . . . .                   eXeXi._.i.Z f D C S C z a % X . X X . . .                     sXa.a._.,.v b Z S Z z x * X . . X . . X .                   eX`.i.`.4.b v D C S v z t X . . + . . . .       ",
"                        jXhX_._.w.                                                  jXjXeXp._.C                                                   hXtXp.`.3.                                                  hXfX_._.9.                                                  jXhXqX).).                                                  lXjXtXp.`.S                                                   hXuX)._.7.                      ",
"                      SXF a z z d @                                                 /.a x f z *                                                 tXx d d z y .                                               zXC a z z d @                                               PX0.u z f z &                                                 yXg x d z t o                                               hXN g z z a X                     ",
"                      _.y         q @                                             uXC         q *                                               3.O         q +                                             t.q         q @                                             eXz         q &                                             fXS >         q X                                             q.#         q @                   ",
"                    lXN           v y                                           PX8..         b f                                             yX@           l q                                           pXa           v y                                           JXS           b d                                             /.X           l *                                           rXt           l e                   ",
"                    hXN           b y                                           SX8.          b f                                             qX#           v q                                           tXa           v y                                           zXS           b f                                             /..           v q                                           yXt           v y                   ",
"                    eXV           b y                                           fX3.          b f                                             t.e           v q                                           _.z           b y                                           eXS           b d                                             e.*           v *                                           ).a           v e                   ",
"                    jXx           d p                                           JXJ >         d d d                                           qX.           d y                                           uXt           d y                                           zXC           d d                                           PXy.>         p d p                                           rX@           d y                   ",
"                  PXJXV % s t t y & l b                                       JXPXu.@ t t t y & p b                                         PXrX= = s t y = q b b                                       PXzXx % s t y t * v b                                       LXPXF @ s t t y & d b                                         IX0X% t s t y * y b v                                       PXhXs * s t y q = b b                 ",
"                  SXPXjXtXhXtX_.D f b y                                       SXPXlXtXfXfX`.S f b f                                         LXSXuXtXhXeX7.l v l t                                       SXLXhXtXhXeXp.b f b y                                       SXPXlXtXfXfX_.Z f b d                                         PXSXtXuXfXwX3.f v l q                                       SXJXfXtXhXeXw.v l v y                 ",
"                  JXPXxXsXxXdXS y l d *                                       JXIXkXsXfXfX9.p d f e *                                       PXDXfXdXxX_.v p l y *                                       JXLXxXsXxXeXZ y l p *                                       JXIXkXsXfXfX3.p f d q                                         IXzXdXdXxXi.f d l y q                                       LXDXfXsXxX`.V y v y *                 ",
"                  lXeX9.C 3.C # @ = * q                                         tXw.Z 3.3.q @ * * *                                         fX).3.Z 3.d @ & * * q                                       jXqX7.C 7.b @ % = * *                                       SXtXw.D 3.Z * @ * * *                                         uXp.Z S 3.y @ * * *                                         hX_.3.C 7.z @ & = * q                 ",
"                    t s @ t & @ % + @                                           q a & = t @ % @ @ *                                           s = @ t @ @ @ + &                                           t t @ t % @ @ + @                                           t a @ = * @ % @ @                                           q a * & t @ @ @ @ &                                           y t @ t @ @ @ + %                   ",
"              LXfX1.).).S 9.D f f y d y q q                               PXkX4.e._.3.3.1.f f y p p q q                                 DXa.3.`.3.3.3.l f d y d q q q                               LXeX1._.w.S 9.V f f y d y q q                               PXkX3.w._.S 7.Z p f y d y q q                                 zXe.3.`.3.3.3.f f p p d q q q                               DX`.3._.e.1.7.b f d y d i q q             ",
"              jXeX_._.F 7.1.v y t d y e e =                               lXfX_.wX3.3.3.b d t d d t t t                                 hX_.wXw.3.9.D f t a f t e t e                               hXeX_.).S e.S l t t f y = e =                               lXuX_.qX3.7.3.b u t f d t t t                                 hX_.wX9.3.7.D d t d d t t t q                               pXqX_.p.F e.Z l t y l y e t q             ",
"              V w p y w f t q w q e q q w q                               F w y y 0 d a & 0 & q q & q q *                               y r y 0 y d & 0 & q q & 0 q *                               z r d r r z q q q q e q q w q                               A q y y & d y & & & q q & q q                               u.r y y 0 a g & 0 & q q & * q *                               a w a q r x q & & & q & & q *             ",
"            hX) L ^ L _ e.t 6 _ / / / / / / p                           zX<.4 9 9 9 4.N < 7 7 7 7 7 7 L 2 -                           i.4 9 9 4 <.F O 9 7 7 7 7 7 L 6 *                           tX_ L ^ L ) 9.* 8 / / / / / / ^ w                           jX( 4 9 9 7 9.x < L 7 7 7 7 7 7 2                           KX4.4 9 9 4 <.A < 7 7 7 7 7 7 7 5 -                           _.9 4 9 4 ( 8.# 9 L 7 7 7 7 7 8 0           ",
"          pX6.>.Z.S.Z.G.`.s { F.S.S.S.S.Z.Z.] w                       lX4.Q @.%.o.#.$XB k @.%.%.%.%.%.-.W 2 -                       p.W o.%.%.X.|.J 3 o.-.%.%.%.%.-. .6 &                       tX6.C.A.S.b.}._.t =.A.S.S.S.S.Z.S.` r                       jX<.| -.%.o.-.$XN Y ;.%.%.%.%.%.-.E 1                       KXi.W @.%.o.X.{.A 6 #.%.o.%.%.%.-.Q 5 -                       qX` ..%.%.X.|.y.1  .-.%.%.%.%.-...8 &         ",
"        pX6.%.F.A.A.F.H.`.: { I.F.F.A.F.F.F.A.] p                   lX4.W @.x.;.@.$.$XB k b.;.;.;.;.;.x.;.W 2 q                   p.E O.x.;.-.$.|.J 3 @.x.-.;.;.;.;.x. .6 0                   tX2.:.F.F.A.F.XX).- *.H.F.F.A.F.F.F.S.` w                   jX<.R @.x.z.@.j.$XM Y b.;.;.;.;.;.x.-.E 2                   JXi.E #.x.;.;.j.|.A 6 b.x.;.-.;.;.x.;.Q 5 q                   wX/ X.x.;.-.#.S.y.$ O.b.;.;.;.;.;.x...8 0       ",
"      pX6.%.F.A.Z.A.I.XX).d k..XI.G.A.Z.Z.Z.F.A._ w               lX4.W @.-.&.&.@.-.$XN Y ;.-.-.&.&.&.&.;.x.E 1                 p.E o.-.&.&.%.@.{.F k @.-.%.&.&.&.%.-.x. .2 *               tX{ :.F.A.A.F.I.#Xe.p D..XI.G.A.Z.Z.A.F.S.^ *               hX<.R @.-.&.%.o.:.'.x W ;.%.%.-.&.&.&.;.;.U 1               JXi.E #.;.%.-.v.M.$XA Y B.N.v.-.-.%.&.;.x.Q 2 -               qX/ X.x.-.%.%.@.{.8.p O.;.%.&.-.&.&.-.x...6 -     ",
"    fX6.%.F.Z.A.I.I..X'.s { Y.I.I.I.I.G.Z.Z.A.F.{ p             lX4.! @.-.&.&.-.@.{.B Y x.;.-.%.-.&.&.&.-.x.Q 5 *             _.E o.x.&.%.-.#.|.J c m.M.-.-.%.%.-.-.&.x...8 q             tX{ :.F.Z.F.I.I.XX).u l.Y.I.I.I.I.G.Z.Z.F.A.` w             hX<.R ;.-.%.%.-.x.$XN } B.z.-.-.%.-.-.-.-.x.W 2 =           zXi.E #.;.%.z.n.V.|.A k n.N.M.n.n.v.-.%.&.x. .6 q             wX/ X.x.&.%.-.#.|.q.p k.M.-.-.%.%.-.&.&.;.%.L 0     ",
"  lX6.o.F.Z.A.I.I.I.+X`.= l.+X.XI.I.I.I.G.Z.Z.A.S./ w         KX9.T @.-.&.-.&.v.N.$XM Y K.M.z.-.&.&.&.&.-.-.;.E 1           qXU O.x.&.-.-.z.V.|.H 3 B.N.n.c.-.-.%.&.-.-.;. .2 *         hX2.:.F.Z.A.I.I.P.@Xt.= D.+XY.I.I.Y.I.G.Z.Z.F.C.^ 0         JX4.! x.-.&.&.-.v.N.$X: ~ K.n.n.z.-.-.&.-.-.-.-.U 1           p.T #.;.%.v.n.M.V.&XB k P.N.n.n.M.N.v.-.%.-.;.W 2 -         tX^ X.x.-.&.-.z.V.}.u.1 V.B.n.n.-.-.&.-.&.-.;...6 -   ",
"  fX' :.F.A.I.I..XY.:X`.s l.<X=X.XI.I.I.I.G.Z.A.F.{ p         lX<.R x.%.-.-.v.M.N.$XN Y K.N.n.n.v.%.&.&.-.-.x.Q 5 *       JXi.T ;.-.%.z.n.n.B.#XH 6 N.N.n.n.n.c.-.%.-.&.x...8 q         tX` Z.A.A.I.I.I.Y.,X).t  X<X=X.XI.I.Y.I.G.Z.F.A.] w         hX_  .x.%.-.c.n.V.P.$Xs ~ P.M.M.n.n.z.%.&.-.-.x.W 2 =       SX4.T x.-.v.M.n.N.T.&XB n *XoXU.N.n.n.N.v.-.&.x. .6 q         _.P @.;.%.z.n.n.B.XX8.i c.P.n.M.n.n.-.%.&.&.;.%.L 0   ",
"lX<.*.A.A.I.I..X=X-X<X`.: l.<X:X:X=X.XI.Y.I.F.Z.A.S._ 0     IX9.E ;.-.-.c.n.n.N.K.&XM Y B.M.n.N.N.v.%.%.&.-.-.;.E 1       qXU o.-.-.z.n.M.L.E.@XH p oXW.M.n.M.N.c.-.%.-.-.;. .2 %     jX' >.A.G.I.I..X=X-X<X).*  X<X:X:X=X.XI.Y.I.A.Z.F.C.^ &     KX<.Q ;.-.-.c.M.N.R.*X%X: [ -XL.M.M.N.M.z.&.&.&.-.-.U 1       p.U @.-.v.M.M.U.oX~.&XB n *X*XoXoXU.n.n.N.v.%.-.;.Q 2 %     tX^ O.;.&.z.n.M.L.E.,X0.q Q.OXN.n.M.N.n.-.%.&.&.;...6 - ",
"fX' :.G.I.I..X=X>X>X,X).p J.<X:X:X:X=X.XI.I.G.Z.A.F.{ p     zX<.R x.%.v.N.M.n.U.oX$XN } P.M.n.n.N.N.z.-.&.&.-.x.Q 5 @   IXi.T ;.-.z.n.M.L.oX*X&XS n *X;XR.N.M.n.M.c.-.%.&.x...8 #     tX] Z.G.I.I..X=X:X-X4Xe.p #X<X:X:X:X=X.XI.I.G.Z.F.F.] w     jX_ | x.%.c.M.N.R.;X;X'.g g.-XoXL.N.n.M.n.z.&.%.-.x.W 2 @   JX4.T x.v.M.M.U.oX;X*X%XV } *XoXoXoXoXU.n.M.c.-.%.x. .6 #     _.P @.-.-.n.M.L.oX*X&X8.n oX-XoXN.M.n.N.n.-.%.&.x.%.L 0 ",
"/ >.F.I.I.I.OX:X-X>X'.s g.>X-X=X:X:X:X=X.XI.I.G.Z.A.Z./ r rX4.! ;.-.%.c.M.n.U.*X%XN [ oXoXU.n.n.n.N.N.z.%.&.-.-.;.W < r._.U o.-.&.z.N.L.oX*X&XJ n Q.OXoXoXoXR.n.n.N.c.-.-.-.;. .< C uX' >.F.I.I.Y.=X:X-X,X).a  X>X-X:X:X:X:X=X.XI.I.G.Z.A.C.^ a iX<.R ;.&.-.n.N.R.;X*X$XM [ *XoXoXoXoXL.n.n.n.z.&.&.-.-.U < 0Xi.T -.v.N.n.L.oXoXE.&XA n oXE.oXoXoXoXoXU.n.n.v.-.-.;.Q < J tXU ..;.%.z.M.L.oX~.@Xq.p J.OXoXoXoXR.N.n.N.n.-.&.-.;. .7 ",
"` C.G.I.I..X=X:X-X<X`.= 3X9X:X=X=X:X:X:X=X.XI.I.G.A.F.E w rXi.R j.-.-.c.N.U.oX*X%XM [ -XR.oXU.N.M.n.N.v.&.&.-.@.j.! , (.wXE #.-.z.n.L.oXoXE.&XA c -X;XR.oXoXoXR.n.n.N.c.%.%.j.+., A hX{ b.G.I.I..X:X:X-X4Xq.t 2X9X:X=X=X:X:X:X=X.XI.I.A.A.A.U p pX2.| ;.%.v.M.R.oXoXOX$X: g.<XoXoXoXoXoXL.n.n.M.z.%.@.j.T < 0X_.! $.c.N.n.U.oXoX*X&XM G 8X;XoXoXoXoXoXoXU.n.N.v.o.j.| , J tXE #.-.-.n.N.oXoXE.@X8.i ;X-XR.oXoXoXoXM.n.N.n.-.%.@.O.4 ",
"a.|.P.P.Y.=X:X=X<XMXwXt 3XCXMX5X=X=X:X:X-XW.I.P.F.}.}.{ p rXuXf.@.#.x.V.U.oXR.*X%XM ^.9XoXoXR.oXL.n.M.V.h.#.#.-.Z.{ 2 u.jXs.;.#.x.V.L.oXoXE.&XS n MX8XoXR.oXoXoXR.V.V.V.@.-.S.*.5 V jX`.}.P.P.Y.-X-X=X<XBXt.t cXCXMX,X=X=X:X-X-XY.I.P.F.}.}.' p rXtX=.#.#.V.V.R.oXE.=X$Xs ].ZX4XR.oXoXoXoXL.V.V.x.#.z.Z.] 1 0XhXf.b.V.V.T.oXoXR.5XnXN G CXVX6XoXR.oXoX;XR.V.V.c.-.Z.=.2 F jX'.:.#.h.V.L.oXoXE.4X7.c mXMXoXR.oXoXoXR.N.V.V.@.@.S.>.^ ",
"s w.@X.X@X,X-X<XNXFX`.- 3XFXCXNX5X-X-X-X,X,X@XXXXX'.t.w.z yXJ C {.C.H.XX+XE.*X8XgXt ^.CXNX5X;X;XT.V.N.XXD.C.C.{.t._.V r./.N [.A.H.}.U.E.E.5XnXD c CXCX8X*XE.E.E.*X+XH.I.H.{.t.).S S rXN i.@X.X@X,X-X<XNXFXw.= 2XFXCXNX<X-X-X-X,X,X@X.XXX'.t.e.V rXA S |.H.}.I.W.E.*X8XgX- ].FXVX<XE.E.E.~.;XXXH.I.Z.s.t.p.v /.r.V {.I.H.+X;XE.5XCXnXM m CXCXZX6X*XE.E.oX:X+XH.I.{.t._.Z J yXN s.Z.H.}.U.E.E.<XBX8.u AXCX8X;XE.E.E.*X@XXXH.H.C.i.t.t.",
"6 d q.).w.).4XMXFXGXeXx 3XFXZXGXBX5X,X,X'.t.p.).).z * * e rX<.O F ).t.y. X=X6XFXgXN ^.FXZXBXBX6X@X.X{.y.t.t.).Z * = @ y.`., V ).).y.$X=X5XZXnXS G ZXZXZX6X@X@X:X#Xt.y.p._.7.q * @ A fXj p y.).y.'.4XVXFXHX).z bXFXZXGXVX4X,X4X'.y.p.).w.d * # a uX( O 7._.y.t.#X=XMXGXgXM ].FXZXBX4X@X:X:X$Xy.t.).).V * * # yXi.O S _.t.y.$X5XZXCXnXD 5.CXBXBXZX6X@X:X%Xt.t.t._.3.= * O J eX< f ).).y.'.@X4XZXHX7.V AXZXZXMX:X@X:X#X).y.t.).e.y * q ",
"` =.l = q u e._.t.).wX).t.).t.t.).p.).p.z q t e e { v.U r rX6.T n = q q F _.t.).wX_.t.).p.).)./.)._.Z * q q - ^ o.T , 0X`.T } = q * C ).p.t._.wXt.t.p.).).w.p._.3.q q t = p ..Q , A hX] ~ p = q d w._.t.).wX).t.).p./.).p.).w.d * t = y =.z.L p pX) ! n - q t 3.).t.p.wX_.t.p.p.).t.w.).).V * t t = Y o.P O yXi.T _ = t = Z _.).t._.`.t.p.p.p.).t.p._.F q q t - k o.R , J tXU W t = * z p.).t._.wXt.t.p.).).w.t._.9.y * t = p  .+.9 ",
"_ C.D.l.#X Xc = ; x ).N * u t t t s ; t g.oXD.l.k.A.G.` r rX4.Q z.k.k.J.m = t q e.S - t t t t t t - } k.O. . .o.b.W < r.wXE O...k.D.[ = s = F q.= t t t t t t - n J.k.k.....b...2 B uX' C.D.l.#X Xa = * z ).g * y t t t s = p  X#XD.l.*.F.G./ y iX<.| ..O.k.l.n = t y w.C - t t t s t q = [ D.k.k. .o.b.U < 0Xa.E z.*.l.Q.[ = t = 3.7.& t t t t t t - m Q.l.k.....b. .< J tX/ X.O.k.m.g.t ; * C t.t = t t t t t * c l.k.k.O...x.%.7 ",
"_.` Z.+X-X<X2XcX2XbX_.* ].mXcXcXcXcX XJ.>X<X+XY.H.A.] w     fX( | K.P.W.Q.3XcX2XgXs G bX2X2XcX XJ.l.c.P.V.;.b.x.W 2 @   zX4.T V.B.W.R. XcX2XvXA c 2XcX2XcX3XJ.J.Q.OXP.B.b.b...8 #     _.` F.OX-X<XcXcX2XbXw.= ].bXcXcXcX2X X X<X<X+XY.H.Z.` w     tX^ +.B.P.E.Q.3XcXcXsXe ^.bX2X2XcX XJ.J.oXW.B.V.b.x.E 2     jX<.! B.W.*X4XcX2X2XgXN m cX2X2X2XcX&Xl.Q.-XW.B.V.b. .5 #     e.P b.B.Y.R. X2X2XbX7.i 3XcX2XcX3XJ.l.J.OXP.B.b.x...8 0 ",
"jX) *.I.Y.:XNXCXCXFX`.e 3XFXCXCXFXCX5X-X:X.XI.G.A.F.] w     LX4.T c.n.U.*X8XCXCXvXs ^.FXCXCXFX9X*XW.M.n.z.%.&.x.W 2 %     _.U o.v.L.OX5XFXCXBXS m CXCXCXCXMX*X-XOXn.n.n.%.x...5 @     hX) >.I.Y.,XVXFXCXFXt.y mXFXCXCXFXCX<X-X=X.XI.G.A.A./ &     SX,.Q ;.n.R.-XNXFXCXgXe ].FXZXCXCX5X*X-XT.n.N.z.-.x.E 1       e.U z.M.U.5XCXCXCXnXN G FXCXCXCXFX8X*X*XU.N.c.&.x. .2 %     yXL X.x.N.OX<XCXCXZX7.c AXCXZXCXNX-X*X*XN.n.n.&.;.%.9 & ",
"  `.` C.Y.OX,XMXCXZX_.- 3XFXVXVXZXMX,X-X+XI.I.A.A.S.` w       tX( R B.U.oXoX6XCXgXe ^.CXMXVXVX5XR.L.M.v.-.-.-.-.E 2       lX4.T b.T.R.,XMXVXnXD n CXZXMXBX6XoXoXU.n.N.c.-.;. .5 #       _.` Z..X=X5XVXZXBXq.; mXCXVXVXVXMX,X-X.XI.I.A.A.C./ 0       eX^  .B.R.oX6XVXVXsX- ].CXMXVXBX,XR.oXN.M.n.z.-.-.U 1       hX<.! b.L.oX5XBXVXvXM G CXVXMXMXVX5XoXR.M.M.v.-.;.Q 2 %       9.P ;.L.R.1XMXVXBXd.u AXZXMXBXMXoXoXR.n.M.n.-.;...6 * ",
"  jX2...F.I.=XMXCXCXeXa ].CXVXZXZX5X-X=X.XI.G.A.F.{ p         KX4.T b.N.U.oX5XCXvXN 5.BXZXVX5XoXL.M.M.z.%.&.x.Q 2 *         _.P @.B.L.R.5XCXnXS n mXVXVXBX6XoXU.N.M.c.-.x...8 q         pX' :.G.Y.>XMXCXZX_.a 3XCXVXZXVX<X-X=X.XI.G.A.A.` w         zX<.! V.N.U.;XMXFXgXg ^.VXVXBXMX,XR.L.M.n.z.-.x.W 2 *         w.U #.n.L.5XVXCXnXC G AXVXMXBX6XoXoXU.n.v.&.x. .6 *         yXU O.B.L.R.,XZXBXe.x 2XVXVXBX8X;XR.N.M.n.-.;.-.L 0   ",
"    _.' *.Y.-X,XMXZXZX_.a 3XFXCXNX<X=X+XI.G.Z.F.Z._ w           tX<.W x.P.R.oX6XZXgXg ^.CX5XR.L.M.n.z.&.&.;.;.E 1             4.U @.B.T.1XMXVXnXS G ZXCX6X;XU.n.M.c.&.-.x. .2 *           a.' :..X-X<XMXZXBXw.c cXFXCXMX,X=X.XI.A.Z.F.S.^ *           eX_ Q V.K.R.6XMXVXeXa ].FXVX,XoXL.M.n.z.%.;.;.U 0           fX<.E h.W.OX5XMXVXvXV 5.CXZXBX5XR.U.N.v.&.-.x.Q 2 -           9.U o.B.K.;XMXVXnX7.v AXCX8X;XR.N.M.n.-.-.x...6 -   ",
"      p.2.k.H.Y.:X<XNXeX+ %XCXMX5X=X.XI.F.A.F.Z.` p               qX<.W o.n.W.*X8XvXs } <XU.M.n.n.z.%.-.x.;.W 2 =               4.E O.c.B.T.<XBXA c NX8XoXU.N.M.v.-.;.x. .6 q               i.{ c.H..X:X<XVX/.% 2XCXMX,X=X.XH.A.A.G.S._ w               _.) R o.M.P.oX8XgX- [.ZX,XR.L.n.n.z.-.x.-.E 2               yX<.Q z.c.Y.*X5XnXM m VXMX5XoXU.M.z.-.;.x.Q 5 q               9./ +.z.N.T.>XBXu.* mXMXoXR.N.M.c.-.;.x...8 0     ",
"        `.2.' *.D.P.+X$Xg g.=X.XY.Y.Y.G.A.Z.S.] w                   wX<.I Q o.L.*X&XV Y N.B.N.c.x.;.;.-.o.W 2 -                   4.I ` X.h.B.#X8.c D.P.B.N.N.M.x.-.@. .5 -                   _.2.' >.N.Y.@X'.a  X=X.XY.Y.I.G.A.Z.C.` w                   wX<.I Q O.V.P.$XN [ T.B.N.N.N.c.;.%.o.E 1                   tX4.I W o.c.K.&XA n oXI.N.N.B.n.;.-.@.Q 5 -                   i.^ / +.h.B.XXw.p l.P.B.N.N.M.x.-.%...8 &       ",
"          t.i.<.' *.;.C.i.t ~ b.>.C.C.C.S.` ^ p                       ).p.<.I Q X.X.'.N 7 o...X.....-.W 8 2 -                       t.4.I ` X.+.{.S 3 X.X.......%.Q 7 5 *                       t.i.) ' >.;.|.e.i O.b.>.C.C.C.C.` ^ w                       /.t.( ^ Q X...'.a Y X.+...X...%.U 9 2                       _.p.<.I ] X.X.{.C k #.+.......@.Q 7 5 -                       t.4.^ / +.X.=.7.3 | ........o. .L 6 q         ",
"          % s q.p.2.` 2.eXN ^ ' ' / ) _ ^ p - @                       % ; S _.<.L L '.J 2 / ^ L I I 7 2 - %                         - V ).4.^ L 6.y.r ^ / I 8 I 7 6 * & +                       % a y.i.' ` 6.wXa ( ' ) _ ) / ^ w - +                       % t 7.p.) L / `.A 5 / ^ 8 I L 7 2 - @                         = C _.<.I L s.u.w / / I 8 I 7 5 - % .                       - z t.9.^ L 2._.y I / I 8 I 7 6 q - +         ",
"          f * + ; 7.t.t._.p.w.p.q.f 3.z @ + o .                       l q @ - S t.q.).).w.t.p.V C C @ @ o .                         p @ + N t.q.p.).w.q.p.S z S q @ . + .                       d # + s q.t.p._.t.w.p.7.f 3.d @ + o .                       f w + = F t.q._.).w.t.w.z S V @ @ o .                         y @ % C t.q.p.).w.q.p.D V S & @ . . .                       p @ + g q.q.t._.t.q.p.3.g 3.r @ + . .         ",
"          eXZ e * t a = * t t t ; + * % o X X X                       fX4.y * = a t - e t t t % - = . . + + .                       i.f * * s a * * t ; t * % = + . + @ .                       _.D q * t a = & t ; t = + = % . X + .                       eX3.y * t s t - t t t t % - * . . + X                       fXe.d * = a s - = t ; t - % = + . + + .                       _.b q * t a = * t t t = + = % . X + .         ",
"        SXfXwX`.4.b Z p # @ & & @ @ @ * @ & q @ .                   LXkXeX`.i.b Z v & @ # & # @ @ * @ @ q @ .                     zXeXwXa.,.b b q # @ & # @ @ & & @ q & X .                   SXfXwX_.3.b Z y # @ & # @ @ @ & @ * * + .                   JXxXwX`.4.b Z f & @ # # # @ @ * @ % q @ .                     kXeXwXi.Z b b * @ @ & # @ @ * @ @ q & X .                   zXsXwX_.1.b Z q # @ & # @ @ # & @ * * + .       ",
"        zXfXeX'.s.4.,.,.f q p q # * q @ & @ + + X                   zXkXeX`.s.4.,.,.b 0 y y # * e & & & + + + .                   kXsX`.s.i.3.,.Z i r p & & q * @ & @ + + .                   lXfXeX'.s.4.,.,.p q p q # q q % & @ + + .                   zXxXeX`.s.4.,.,.b 0 p y # * e % & % + + +                   SXkXeX`.s.i.1.,.Z r i y & & e * % & @ + + .                   kXdXeXs.i.4.,.,.p q p * & q q % & @ + + .       ",
"        eXeXi.`.i.b l Z C Z V z t @ . . X . . . .                   eXeXi._.a.Z f D C Z C z d & . . X X . . X                     eX_.i.`.3.v b Z C Z z d = X . . + . . . .                   eXwXi.`.4.b v Z C Z v g t + . . + . . . .                   eXeXi._.i.Z f D C Z V z a % . . X X . . .                     sX).a._.,.v b Z C C z g * X . X X . . X .                   eX`.i.`.4.b b Z C Z v d t X . . + . . . .       "
};
