/* XPM */
static char *_c645bd44368407a91115b0d34bb31edG9RRVNrIEpXdLuA0[] = {
/* columns rows colors chars-per-pixel */
"64 64 47 1 ",
"  c black",
". c white",
"X c #527EBD",
"o c #43679B",
"O c #43679A",
"+ c #3E608F",
"@ c #3A5986",
"# c #36537D",
"$ c #345077",
"% c #253A56",
"& c #233550",
"* c #21334D",
"= c #1D2C42",
"- c #1C2B41",
"; c #101925",
": c #101824",
"> c #334F77",
", c #273C5B",
"< c #4B73AD",
"1 c #466CA2",
"2 c #2E476B",
"3 c #2D4568",
"4 c #273C5A",
"5 c #5785C8",
"6 c #4F79B6",
"7 c #4F79B5",
"8 c #476DA3",
"9 c #3E5F8E",
"0 c #3A5985",
"q c #37547E",
"w c #314B71",
"e c #2D4567",
"r c #263A57",
"t c #243753",
"y c #1E2E45",
"u c #2A4060",
"i c #243854",
"p c #5685C7",
"a c #527FBE",
"s c #4B74AE",
"d c #314C72",
"f c #2A4161",
"g c #22354F",
"h c #2E476A",
"j c #21334C",
"k c #1E2E44",
"l c None",
/* pixels */
" 4%4t4t,t,ig6XXX7X6XXa6X7aaX:-#O87s66s68sOq,:**jj**j*j*%t4t4t,t4",
" %,rr,%%r4%*X6s78666s66167s@;-#s1@o#@@@@qot-;-2@@#@@@$23**j&j**&",
" @@q@@@q@:r&Xss861ss1ss187@u;=O6O@o@O#O@O#,=;-@6XXX7X81O@#@@@#@@",
" 66778O@#;4jX6oO+o@oOOo+oo>r;-@1@@#OOoo#@wt-:=#Xa8s16XXX7X6<776s",
" Oooo9o>d:%jp8+ooOO+O@o#OO2%:-jO@OO#@9@Oh,%-;-@61o@O@OO9@@O@O#O@",
" 89+9O@$2:g*p7O#o@o@99+@@o@i;=j$@#o@OoqOd-=-;-#X8@O#+#@@o#@9@O+@",
" 1o#1#+f,:-*5s@+@Oo+@$@@o@u4;-**@OO+@@@O2---:-@XOO#9$o+$@O#Oo@>o",
" 9Oo@+w*&:;&s8o9O#o@+#9@@ohr:;&r*>--------;;-=wXX@oqq9w+@O@@>OOw",
" @@#@d%j*:-jOpO9o@@@@@@#O#,$;;=*--=--=-;=;::*j*ss@@@@++9#@o@OO#O",
" w2wdt&=-::&@6@O@@$@@O#O@Oh4-;-*-;:::;:;-:-;g%j<O@O#O@#@wh3ffeu3",
" %4j*j::::-kwXo#+>>$o+@#$@h3-;-**&&w$@O+OO+w-t&8@hw3f3,rrrj&j&j*",
" ;::;;=:-:-%*Xs@@@+9#@O>@O@t-:-kdoO7X56669h%:r*@2ef%&jj---=-:=:=",
" ;=;-;;=;-=ijO6@O#$@o@#9@#wt-:;=o8X78#o@O#w-:-=-=-=-----:;;:;::;",
" ----=--=--&&@soqo9#$@$@O@t,-;=yoX1O@@@#@@i=;-;;-::-::-;yy-=--=-",
" %g-=----:-%jw<qO+@o+O#O#Otw*;:&O5O@#o@O#o%-:-*4%44:j&**&*j*j**j",
" ++@9@9@+9::4*s8+@#99d@@@@2,r::&O5#@OO#O0@t-:-2Oa64j%>99@+9+@9+9",
" 6s77<78Owy;,j@1@o@$@@#O@2@h&;:&O<Oo@#O@O#,-:-O6so;*$s7XXX7aXX7X",
" O+@O@OO2w-:r*w9OqOo#Ow@2rw%&;:&OsO@2ww2%4%=;-6sO#;g97718o811o18",
" o@+@o#@hw=;*%*+@wwhwr%dtwrj;;:-+@w@2----=-=:fXO@@:*+XOo+O@O@+#+",
" o@@O#Ooh4-:jr*3%4r,j**=;:;:;:;;@w===::;;::;;uXOO#;&+7O@9#+@+w#@",
" O@O@o#@wt=:*%j;-;-;::;;:;::;;;--t-;;:::-:;-;@Xoo@;*@s#o+o@O@+#9",
" @Ow$@@oh,-;-t,&-;;::;::;t&&t&&*@@@oo@@@$4:y38XO#>:&#so#+@9#+$>@",
" @##$@O#ej-;-#XXX7sOo@u-&e>Oo8ssXXX7XXX<+e;-$Xs+Ow;jq8o+0o#o@$>@",
" @@Oo#@@u&=:=7sO@++O@9-t&$6pXXs88<8s8s8s2,;=@XO9@2:&2s#O@@+@#O@O",
" 9O#@O#w%=-;-X+@+Oo@+O:%&9X<@O#O+#o+O9@#3j;-@pO#O4;&j@wf,rreeh>@",
" eueu3r*---;-7ooo#O@Of;&j95O9o@$oo@#@O#O4j:-#5Oo@4:%;--**j*&j*%4",
" %&*-=-;;:;;-X#o@oo@$f:&*+5#O@+O#@$@O@@@t&;-@p#O@t:4-;;;:;:::;--",
" :::;:::-;&&*XO+#O@O>f;-*+p@@o#0$@$@#@O0t&;-#5Oo#4:,-----==;-;:;",
" *3e2@9@#@@*;XOw9@O##e-;j@5O@#@>@$@O$@#O%j;-@5@oOt;,jy*t%t4%%,--",
" e@8a7X76sOw;Xoo#$@O#3-:j@X89@O@od$@$@o#4-:-@7@@Oi;&oX68@f4**&*j",
" 3O7ss8oO+oy;p@9O$@O+h*:&$7sO#@w@$$o@o##t-;-@Xo0@r;&X#@1Xa6aXa@-",
" 3X8Ooqo@o#w;5+o@oO#oh&;-tsXOO+@o#O>$@oh4-;y@7@o@t:&X@qOOq@o@#q=",
" 371+#O@O#Ow:59#9o@O#er;;,opoo9@@$@$>o#w*-;&@7oo#,;*XOO#@OO#O@u-",
" eXo@O@Oo$ot;aOoO@@@Oet;-t@58o@o#@9#O@Ou*;=y@6+@ot:&sO@oo#@o@Of=",
" 3XOo@@9+o#4;a8$+>OO+f,::&h61o@>+#@9@@@f-;:g@7@Ot4:&<o9o@o#@O+,-",
" 361@OO@O#O%;sX#+o@@@u4;;gr8XO#o@O@o#@e%=;=*>O>i---yoo@O9@O@#o,-",
" eX8O+@o@O@t;8X$o#@@O2,:;-t@8o@$3f%*&--==;-y4--=-kj:wi*%,%,r%,%-",
" eXO@OO#o>O%;+6+$OO#@h,;:=%j@@u,j-:;;;;;;:=ji**ir4%,;::;;;;:;;;;",
" 361@#9o@O#,:$Xo+oq@o3t;;:t*-;-:::;-:-;;-:=*%,**&j*j&**-----=---",
" eX1OO#+O@O%:45@+@@O#e%:;-***---==&*&yt&*&jj4%>>$$$>$$$$>$$$$>w-",
" eXO@@O#O@h4;j5o@#>@Oh,:::ye$$$>$>$>$$>$>@@@9O1Os1s1s88s1s8s1s$-",
" 3s8OO@o@Ot;:tp+@o@@q3,-;:-$s8s1<8s<1s8s1s87XX555p555p5557X77@e;",
" e61@o@OO#4;-k5@o$+#O3t-;:;$ss55p55aa55a5p555XX67188s8O1s18s8$,:",
" e88O@o#@@t;=*XOo#o@@f,-;;:$ss8s8s8so1so8s88OO+9@@o@o#@@O#O@oh4=",
" &sq@o#whw%:-j7#@o#O@2,=:;:e1X8@@#@@@OqOO@@+ooO@$9#Oo9#o@OO9@2%;",
" *8Oo9@4rr:;y*8oq@o@#d%-::;*sX8@@@O@+@9O#@+Oo#+@+@@>#++@o#o@Oh4-",
" j>$$,%4%%:--y9+O#@@her=;:::8X7OO#@@@$@#O@9#O9$#@O#@O@$w@>+@@w%:",
" *-:;:,%%,;-y&>3ueefe%%=:;:-o76@#o@o#@o@$$99#O@o@@o#0$@@#O@d#24;",
" r,%*-;;:;=-y-=---------;:;:@71O@@O#o$@#+$+@+$O#@$@@@#o@$@@#$h4;",
" *&*j*&j=;;=&--;::;;;:;:::;-q92wwhwwhO@OO#@>#@0>@@O#o@@o#@@@+h4;",
" *$OOoO@@e&&%--::-;:=:;-:-:-%j--;-;=;,wh$@>$>$>>$>$$>$$$$$$>$et:",
" *O<7X6XX1oO@2u,&--------=-y,j*-----=:&r%,%,r,r4r%%4%,%%,%,%%r:-",
" *O7oo@87XaX1oOOoOoo+@@#$$23et,jj*k*--:-:=;=:-;-:-:;;:;:;;::;:;-",
" jOXOoO1O@o8XXX6X7X7XXXXs7s8oOoOo#&r*-=----=--;:-;-:-;-:=:-;=--*",
" jOXO#O>$o9@$o#O@O@OO#o@ooOs6X768#=*ig*j---:-----------------y*&",
" *O<OOo@O@@@9O#@O$w@o$@#@O#O@oOO$e:-t&O6X+$&&*%%rj*yj*jyj*y**t,%",
" *Oso#O$$+o#oO9#$O>@>+#o@o@O#Oo93r;=**aOoXXX68rr&8XX7aXX76sO+$&*",
" *o#3f3f3f3ef3ueefeueue3u3fef3f34%-:-*71o1o118f4$X+oo@Oqo+o@O69;",
" j@e-==-------------==-=----===--=-;:&8O189u9#3j8O@o#oOO#O@O#O%;",
" *-;::;::;:;::;::;;;:;;;:;;:;;::::;:;t-*-teu3eu&X9++OO@+o+9o@@t:",
" r&---;-::-::-;;=:=::=;;=;;=;;-;:-:-:yt4=-:;;::=%,%%%%r,t%,r4i4;",
" %4trj**&&*&&---=---=----=----=-----=-t4t%--=---tr:;:;;:;;;:;;::",
" -=----------===-=-=----==-=-----=------=-----------==----=-==--",
"                                                                "
};
