/* XPM */
static char *result[] = {
/* columns rows colors chars-per-pixel */
"64 64 41 1 ",
"  c #080C13",
". c #101826",
"X c #101926",
"o c #111927",
"O c #111928",
"+ c #131D2D",
"@ c #131D2E",
"# c #141E2F",
"$ c #141F2F",
"% c #152032",
"& c #162134",
"* c #162235",
"= c #172337",
"- c #19263B",
"; c #19263C",
": c #1B2940",
"> c #1B2941",
", c #1C2B42",
"< c #1C2B43",
"1 c #1E2E47",
"2 c #1F2E48",
"3 c #1F304C",
"4 c #20314D",
"5 c #223451",
"6 c #223452",
"7 c #253857",
"8 c #253858",
"9 c #273C5E",
"0 c #283C5F",
"q c #2B4267",
"w c #2C4268",
"e c #2E466D",
"r c #2E466E",
"t c #314C77",
"y c #324C77",
"u c #34507D",
"i c #35507E",
"p c #375483",
"a c #385584",
"s c #3B598C",
"d c #3B5A8C",
/* pixels */
" X . . . . X . X . . . . . . . X . . . . X X . . . . . . . . X .",
"=&=%=%=%=%#ipppupippaipuaap .5qruyiiyiryq6= @@++@@+@+@&%=%=%=%=%",
"&=**=&&*=&@piyuriiiyiieiuy8 .5ye8w588886w%. .<8858884<>@@+$+@@$@",
"88688868 *$pyyrieyyeyyeru8- Xqiq8w8q5q8q5=X .8ipppupreq858885888",
"iiuurq85 =+piwq0w8wqqw0ww3* .8e885qqww581%. X5paryeipppupituuiyi",
"qwww9w32 &+sr0wwqq0q8w5qq<& .+q8qq5898q,=&. .8iew8q8qq988q8q5q80",
"r909q84< #@suq5w8w899088w8% X+485w8qw6q2.X. .5pr8q50588w5898q080",
"ew5e50;= .@dy808qw08488w8-= .@@8qq0888q<... .8pqq594w048q5qw83w0",
"9qw801@$  $yrw9q5w805988w,*  $*@3........  .X1pp8w669108q883qq18",
"88582&+@ .+qsq9w8888885q5=4  X@..X..X. X   @+@yy888800958w8qq5q7",
"1<12%$X.  $8i8q88488q5q8q,=. .@.       . . #&+tq8q5q8581,>;;:->;",
"&=+@+    .o1pw50334w08548,>. .@@$$148q0qq01.%$r8,1>;>=***+$+$+@$",
"     X . .&@py8880958q38q8%. .o2wqupdiii9,& *@8<:;&$++...X. X X ",
" X .  X .X%+qi8q548w859851%.  Xwrpur5w8q51. .X.X.X.....         ",
"....X..X..$$8yw6w954848q8%=. XOwpeq888588%X .  .  .  . OO.X..X..",
"&#.X.... .&+1t6q08w0q5q5q%1@  $qdq85w8q5w&. .@=&== +$@@$@+@+@@+O",
"008989809  =@yr0859928888<=*  $qd58qq5q78%. .<qai=+&399809089099",
"iyuuturq1O =+8e8w84885q8<8,$  $qtqw85q8q5=. .qiyw @4yupppuappupi",
"q08q8qq<1. *@19q6qw5q18<*1&$  $qyq8<11<&=&X .iyq5 #9uuerwreewerr",
"w808w58,1X @&@0811,1*&2%1*+   .0818<....X.X ;pq88 @0pqw0q8q80509",
"w88q5qw,=. +*@>&=*=+@@X        81XXX        -pqq5 $0uq8950801585",
"q8q8w581%X @&+ . .            ..%.     .  . 8pww8 @8y5w0w8q80599",
"8q1488w,=. .%=$.        %$$%$$@888ww8884= O>rpq53 $5yw5089504388",
"85548q5:+. .5pppuyqw8-.$:3qwryypppupppt0: .4py0q1 +6rw07w5w84388",
"88qw588-$X Xuyq800q89.%$4isppyrrtryryry<= X8pq98< $<y5q88085q8q8",
"9q58q51&X. .p080qw80q &$9pt8q5q05w0q985>+ .8sq5q= $+81;=**::,385",
":-:->*@... .uwww5q8q; $+9dq9w84ww858q5q=+ .5dqw8= & ..@@+@$+@&=&",
"&$@.X.     .p5w8ww84; $@0d5q80q5848q888%$ .8s5q8% =.         ..@",
"       . $$@pq05q8q3; .@0s88w57484858q7%$ .5dqw5= =.....XX .    ",
"@>:<898588@ pq198q55:. +8dq8583848q485q&+ .8d8wq% =+O@%&%=&&=...",
":8raupuiyq1 pww548q5>. +8pr98q8w24848w5=. .8u88q% $wpir8;=@@$@+*",
">quyyrwq0wO s89q48q0,@ $4uyq581844w8w55%. .8pw78* $p58epaiapa8.*",
">prqw6w8w51 d0w8wq5w,$ .%ypqq08w5q348w,=. O8u8w8% $p86qq68w856X%",
">ue05q8q5q1 d959w8q5:*  =wsww9884843w51@. $8uww5= @pqq58qq5q8-.@",
":pw8q8qw4w% aqwq888q:% .%8drw8w5895q8q-@ XO8i08w% $yq8ww58w8q;X@",
">pqw8890w5= ar403qq0;=  $,iew830589888;.  #8u8q%= $tw9w8w58q0=.+",
">ie8qq8q5q& yp50w888-=  #*rpq5w8q8w58:&X X@3q3%...Oww8q98q85w=..",
":prq08w8q8% rp4w588q<=  .%8rw84>;&@$..XX .O=..X.o+ 1%@&=&=*&=&.X",
":pq8qq5w3q& 0i04qq58,=  X&+88-=+.        X+%@@%*=&=            .",
">ie859w8q5= 4pw0w68w>%   %@. .    . .  . X@&=@@$+@+$@@.....X...X",
":peqq50q8q& =d8088q5:&  .@@@...XX$@$O%$@$++=&33444344443444431.%",
":pq88q5q8,= +dw8538q,=   O:44434343443438889qeqyeyeyrryeyryey4.%",
">yrqq8w8q%  %s08w886>=.  .4yryetryteyryeyruppdddsdddsdddupuu8: $",
":ie8w8qq5= .od8w405q>%.   4yyddsddaaddadsdddppiuerryrqeyeryr4= %",
":rrq8w588% X@pqw5w88;=.   4yyryryryweywryrrqq0988w8w588q5q8w,=X.",
"$y68w51,1& .+u58w5q8<=X   :epr885888q6qq880wwq8495qw95w8qq98<& .",
"@rqw98=**  O@rw68w852&.   @ypr888q8089q580qw50808835008w5w8q,=.X",
"+344=&=&& ..O90q588,:*X    rpuqq5888485q895q9458q58q841830881& .",
"@.   =&&= .O$3>-::;:&&X   .wui85w8w58w844995q8w88w574885q825<= .",
"*=&@.    X.O.X.........    8ueq88q5w485040804q5848885w848854,= .",
"@$@+@$+X  X$..            .69<11,11,q8qq583587388q5w88w58880,= .",
"@4qqwq88:$$&..  .  X  . . .&+.. . X =1,483434334344344444434:% .",
"@qtupippewq8<-=$........X.O=+@.....X $*&=&=*=*=*&&=&=&&=&=&&* ..",
"@quww8rupapewqqwqww088544<>:%=++@o@.. . X X . . .             .O",
"+qpqwqeq8wrpppipupuppppyuyrwqwqw5$*@.X....X..  . . . . X . X..@#",
"+qpq5q34w984w5q8q8qq5w8wwqyipuir5X@%#@+... .................O@$&",
"@qtqqw8q8889q58q418w4858q5q8wqq4: .%$qip04$$@&&*+@O+@+O+@O@@%=&&",
"@qyw5q440w5wq954q38305w8w8q5qw9>* X@@aqwpppir**$rppuappuiyq04$@*",
"@w5>;>;>;>:;>-::;:-:-:>->;:;>;>=&. .@ueweweer;=4p0ww8q6w0w8qi9 *",
"+8:.XX.............XX.X....XXX..X.  $rqer9-95>+rq8w5wqq5q8q5q& =",
"@.                                  %.@.%:->:-$p900qq80w09w88% =",
"*$... .  .  .  X X  X  X  X  .  . . O%=X.     X&=&&&&*=%&=*=%= *",
"&=%*+@@$$@$$...X...X....X....X.....X.%=%&..X...%*              =",
".X..........XXX.X.X....XX.X.....X......X...........XX....X.XX..."
};
