/* XPM */
static char *result[] = {
/* columns rows colors chars-per-pixel */
"64 64 37 1 ",
"  c #0C121B",
". c #0C121C",
"X c #152030",
"o c #152031",
"O c #162233",
"+ c #192538",
"@ c #192639",
"# c #1A273B",
"$ c #1B293E",
"% c #1C2A40",
"& c #1C2B41",
"* c #1D2C43",
"= c #1F2F48",
"- c #1F3048",
"; c #21324C",
": c #22334D",
"> c #22344F",
", c #233550",
"< c #253754",
"1 c #253854",
"2 c #263A58",
"3 c #273B59",
"4 c #293D5D",
"5 c #293E5E",
"6 c #2B4163",
"7 c #2B4264",
"8 c #2E466A",
"9 c #324C72",
"0 c #324C73",
"q c #355079",
"w c #385580",
"e c #385581",
"r c #3B5987",
"t c #3D5D8D",
"y c #3E5D8D",
"u c #416294",
"i c #416295",
/* pixels */
" o.X.X X.X o X o.X X.X X.X X.X.o X.X X X.o.o.X.X.X X.X.X.X.X.o X",
"*%*$*$*$*$#rtttrtrttyrtryyt X49qrerrerqe95* @@++@@+@+@%$*$*$*$*$",
"%*&&*%%&*%@trerqrrrerrqrre7.X4eq704777750$X.X,7747773,:@@+#+@@#@",
"77577757 &#teeqrqeeqeeqqr7=.o9r9707949794*o.X7rtttrtqq9747774777",
"rrrrq974.*+tr0980709908002&.X7q774990047<$X o4tyqeqrtttrtrwrrrer",
"90008021 %+uq800998970499,% X+979947879>*%X.X7rq0797998779794978",
"q888973, #@ur9407078887707$.o+3740790591XoX.X4tq7948477047879878",
"q04q48-* X@ie787908737707=*.X@@79987779,XXX X7t99483083794907208",
"89078<@# .#eq089407848770>& .#&@2XXXXXXXX..Xo<tt70558<87977299<7",
"77471%+@ X+9u980777777494*3..o@XXoXXoX.o.  @+@ee7777888470799496",
"<,<1$#oX  #7r797737794979>*X.X@X.   . .X X.#%+w97949747<>:--;=:-",
"%*+@+    XO<t048223087437>:X.X@@##<3798998<X$#q7><:-:*&&&+#+#+@#",
".  ..o X X%@te777884792797$X XO109rtirrr8>% &@7,;-%#++XXXoX o o ",
".o.X..o.Xo$+9r79437074874<$X .o0qtrq40794<X XoXoXoXXXXX .. .  . ",
"XXXXoXXoXX##7e05084373797$*X.oO0tq9777477$o.X..X  X  X.OOXoXXoXX",
"%#XoXXXX X%+<w59870894949$<@. #9i97407940%X X@*%** +#@@#@+@+@@+O",
"887878788  *@eq8748817777,*&  #9i47994967$X X,9yr*+%288788878888",
"rerrwrq9<O.*+7q707377497,7>#. #9w90749794*X X9re0.@3ertttryttrtr",
"9879799,<X &@<8959049<7,&<%#. #9e97,<<,%*%o.Xre94.#8rrqq0qqq0qqq",
"0787047><o.@%@87<<><&%1$<&+.. X87<7,XXXXoXo -t977 @8t90897978488",
"0779490>*X +&@:%*&*+@@o. . . ..7<ooo  ..  ..=t994.#8r9784878<474",
"9797047<$o @%+.X.X.  .. .  ...XX$X..   X .X.7t007.@7e40807978488",
"79<3770>*X.X$*#X..  .  .$##$##@777007773* O:qt942 #4e04878483277",
"7443794;+X.X4tttre907=X#;290qeetttrtttw8;.X3te89<.+5q08604073277",
"7790477=#o ore9788978X$#3rutteqqwqeqeqe,*.o7t987, #,e49778749797",
"894794<%oX.Xt87890789 %#8tw794984089874:+.X7u949*.#+7<-*&&;;>274",
";=;=:&@XXX.Xr0004979-.#+8i9807300747949*+ X4i907* %.XX@@+@#+@%*%",
"%#@XoX.. ..Xt4070073- #@8i4978947379777$#.X7u497$ *X... .   .XX@",
"   .   X.##@t9849792-.X@8u7704637374796$#.X4i904* *XXXXXoo.X. ..",
"@:;,787477@.t9<87944;X.+7i9747273793749%+.X7i709$.*+O@$%$*%%*XXX",
";7qyrtrre9<.t0043794:X +7tq879701373704*X X7r779$.#0trq7-*@@#@+&",
":9reeq0980O.u7893798>@ #3re947<73307044$X.X7t067&.#t47qtyryty7X&",
":tq9050704<.i8070940>#.X$et99870492370>*X.O7r707$ #t7599570745o$",
":rq8497949< i8480794;&..*0u00877373204<@X.#7r004*.@t994799497=X@",
";t07979030$.y9097779;$.X$7iq0704784979=@.oO7r870$ #e970047079-o@",
":t90778804*.yq382998-*  #>rq0728478777-X. #7r79$* #w080704798*X+",
":rq7997949%.et480777=*..#&qt940797047;%o.o@292$XXXO0079879740*XX",
";tq9870797$.qt304779,* .X$7q073:-%@#XXoo.XO*XXoXO+ <$@%*%*&%*%Xo",
";t97994029%.8r839947>*. o%+77=*+X ...... o+$@@$&*%*.  .... ....X",
":rq7480794* 3t080570:$.. $@X.X   .X X..X o@%*@@#+@+#@@XXXXXoXXXo",
";tq9948979% *i787794;% .X@@@XXXoo#@#O$#@#++*%2233323333233332<X$",
";t9779497>*.+i074279>*   O;333232323323277789q9eqeqeqqeqeqeqe3X$",
":eq997079$. $u870775:*X. X3eqeqwqewqeqeqeqrttiiiuiiiuiiirtrr7;.#",
";rq707994*.XOi703849:$X. .3eeiiuiiyyiiyiuiiittrrqqqeq9qeqqeq3* $",
";qq970477$.o@t904077-*X.. 3eeqeqeqe0qe0qeqq99887707047794970>*oX",
"#e5704<><% X+r470497,*o . ;qtq774777959977800973849084079987,%.X",
"@q9087*&& .O@q0570741%X  .@etq777978789478904878772488704079>*Xo",
"+233*%*%% XXO889477>;&o.   qtr994777374978498347947973<72877<% X",
"@X . *%%*.XO#2:=;;-;%%o . X0rr740704707338849707704637749714,*.X",
"&*%@X.. .oXOXoXXXXXXXXX. . 7rq977940374838783947377740737743>*.X",
"@#@+@#+o..o#XX.  ... .   .X58,<<><<>979947247627794077047778>*.X",
"@3990977;##%XX  X. o .X X X%+XX.X.o.*<>372323223233233333323;$ X",
"@9wrtrttq097,=*#XXXXXXXXoXO*+@XXXXXo #&%*%*&*&*&%%*%*%%*%*%%& XX",
"@9r007qrtytq0990900877433,:;$*++@O@XX X o.o X.X X .. . ..  . .XO",
"+9t909q970qtttrtrtrttttereq090904#&@XoXXXXoXX. X.X X.X o X.oXX@#",
"+9t94923087304979799407009ertrrq4o@$#@+XXX XXXXXXXXXXXXXXXXXO@#%",
"@9w99079777894793<70374794970993; X$#9rt83##@%%&+@O+@+O+@O@@$*%%",
"@9e0493380409843927284070794908:&.o@@y90tttrq&&#qttryttrre983#@&",
"@04:-:-:-:;-:=;;-;=;=;:=:-;-:-:*%X X@rq0q0qqq-*3t80079508079r8.&",
"+7;XooXXXXXXXXXXXXXooXoXXXXoooXXoX. #q9qq8=84:+q9704099497949%.*",
"@X.  .  . .  .  ... ... .. ..    . .$X@X$;=:;=#t8889978088077$ *",
"&#XXX.X  X  X..o o  o..o..o..X. X X O$*oX ..  o%*%%%%&*$%*&*$*.&",
"%*$&+@@##@##XXXoXXXoXXXXoXXXXoXXXXXoX$*$%XXoXXX$& . .. ... ..  *",
"XoXXXXXXXXXXoooXoXoXXXXooXoXXXXXoXXXXXXoXXXXXXXXXXXooXXXXoXooXXX"
};
