/* XPM */
static char *result[] = {
/* columns rows colors chars-per-pixel */
"64 64 42 1 ",
"  c #10151E",
". c #10161E",
"X c #1D2635",
"o c #1D2736",
"O c #1E2838",
"+ c #1E2939",
"@ c #212D3E",
"# c #222D3F",
"$ c #232F41",
"% c #243144",
"& c #253245",
"* c #263347",
"= c #263447",
"- c #27354A",
"; c #28354A",
": c #2A394F",
"> c #2B3950",
", c #2D3D54",
"< c #2D3D55",
"1 c #2F3F57",
"2 c #2F3F58",
"3 c #31435C",
"4 c #32435D",
"5 c #344661",
"6 c #344762",
"7 c #374A67",
"8 c #3A4F6D",
"9 c #3B4F6E",
"0 c #3E5475",
"q c #3F5575",
"w c #435B7E",
"e c #445B7F",
"r c #476085",
"t c #476086",
"y c #4C668E",
"u c #4C678E",
"i c #4F6B94",
"p c #506B95",
"a c #53709B",
"s c #53709C",
"d c #5776A3",
"f c #5876A4",
/* pixels */
" o.X.X X.X o X o.X X.X X.X X.X.o X.X X X.o.o.X.X.X X.X.X.X.X.o X",
"-*-%-%;%;&$paaaiapaaspaissa X7wtiuppuptuw7; ##@@##@#@#*%-%-%;%-%",
"*;==;**=-*#apuitpppupprpiu9.X7ur9e799997e%X.X299799962<##@$@##$#",
"99799979 =$auutpruuruurti9:.owpw9e9w7w9w7;o.X9paaaiatrw979997999",
"ppiitw97.-@apewqe9ewweqee5=.X9r997wwee793%X o7asturpaaaiapyiipup",
"weee0e54 *@dtqeewwqw9e7ww2* X@w9ww7909w1;*X.X9pre9w9ww099w9w7w9q",
"t0q0w962 $#diw7e9e900q99e9&.o@697e9we7w4XoX.X7at9w7q799e7909wq9q",
"re7r7q>; X#fu9q9weq9699e9:-.X##9wwq999w2XXX X9aww706eq69w7we95eq",
"0we9q3#$ .$ute0w7e9q7099e1= .$=#5XXXXXXXX..Xo3aa9e7703q9w995ww39",
"99794*@# X@wdw0e9999997w7;6..o#XXoXXoX.o.  #@#uu9999qq079e9ww7w8",
"3234%$oX  $9p9w99699w7w9w1-X.X#X.   . .X X.$*@yw9w7w97931<>>,:<>",
"*-@#@    XO3ae7q556eq97691<X.X##$$369wqwwq3X%$t913<><;===@$@$@#$",
".  ..o X X*#au999q079w59w9%X XO4ewiafppp01* =#92,>*$@@XXXoX o o ",
".o.X..o.Xo&@wp9w769e970973%X .oetait7e9w73X XoXoXoXXXXX .. .  . ",
"XXXXoXXoXX$$9ue7e076969w9%;X.o+earw999799&o.X..X  X  X.++XoXXoXX",
"*$XoXXXX X*@3y7wq9eqw7w7w%3#. $wfw97e9w7e*X X#-*-- @$##$#@#@##@+",
"qq90909q0  -#utq9700499992;=  $wf79ww7w89%X X2wsp-@*5009q0q90q00",
"puiiyitw3+.;@9r9e96997w9291$. $wywe97w9w7;X Xwpue.#6uiaaaisaaiap",
"wq9w9ww23X =#30w7we7w392=3*$. $wuw92332*-*o.Xpuw7.$0iirtetrrertt",
"e9q9e7913o.#*#q93313=*4%3=@.. Xq9392XXXXoXo >aw99 #qaweqw9w9q7q0",
"e99w7we1-X @=#<*-=;@##o. . . ..93ooo  ..  ..:aww7.$qiw907q9q3797",
"w9w9e793%o #*@.X.X.  .. .  ...XX%X..   X .X.9aee9.#9u7eqe9w9q700",
"9w3699e1;X.X%;$X..  .  .%$$%$$#999ee9996- +<taw75 $7ue7q907q6599",
"97769w7,@X.X7aaaiuwe9:X$,5wetuuaaaiaaayq,.X6auqw3.@7teq8e7e96599",
"99we799:$o oiuw9qqw90X%$6pdaauttytututu2;.o9aw092 $2u7w99q97w9w9",
"0w79w73*oX.Xaq9qwe9qw *$0ay9w7wq7eqw097<@.X9dw7w-.$@93>;==,,1597",
",:,:<=#XXX.Xieee7w9w>.$@0fw0e96ee979w7w-@ X7fwe9- *.XX##@#$@#*-*",
"*$#XoX.. ..Xa7e9ee96> $#qf7w9qw7969w999%$.X9d7w9% -X... .   .XX#",
"   .   X.$$#awq7w9w5>.X#qd99e78696979w8%$.X7fwe7- ;XXXXXoo.X. ..",
"#<,2909799#.aw309w77,X.@9fw9795969w697w*@.X9f9ew%.;@+#%*%-**;XXX",
",9tsiaipuw3.aee769w7<X @9at09w9e46969e7-X X9i99w&.$eapt9>-##$#@=",
"<wiuutewqe+.d90w69wq1# $6iuw793966e9e77%X.X9ae89=.$a79raspsas9X=",
"<atwe7e9e73.fqe9ew7e1$.X%uawwq9e7w569e1-X.+9i9e9% $a97ww79e977o%",
"<irq7w9w7w3 f070e9w7,=..;edee0996965e73#X.$9iee7;.#aww79ww7w9:X#",
",ae9w9we6e%.swew999w,%.X%9fte9e7907w9w:#.o+9pq9e% $uw9ee79e9w>o#",
"<awe990qe7-.st6q5wwq>;  $1pre95q790999>X. $9i9w%- $ye0e9e79wq;X@",
"<pr9ww9w7w*.ua7qe999:-..$=taw7e9w9e79,*o.o#5w5&XXX+ee9w09w97e;XX",
",atwq9e9w9%.ta6e799w2; .X%9te96<>*#$XXoo.X+-XXoXO@ 3&#*;*;=*;*Xo",
",aw9ww7e5w*.qpq6ww791;. o*@99:;@X ...... o@&##&=-*;.  .... ....X",
"<pr970e9w7; 6aeqe79e<%.. %#X.X   .X X..X o#*;##$@#@$##XXXXXoXXXo",
",arww7qw9w* -f9q99w7,* .X###XXXoo$#$+%$#$@@-*55666566665666653X%",
",aw99w7w91-.@fe9759w1;   +,66656565665659990wrwururutturuturu6X%",
"<utww9e9w%. %dq9e997<;X. X6uturytuyruturutiaafffdfffdfffiaii9,.$",
",pr9e9ww7-.XOf9e6q7w<%X. .6uuffdffssffsfdfffaapirttutwrurtut6; %",
",ttw9e799%.o#awe7e99>;X.. 6uutututueruetuttwwq099e9e799w7w9e1-oX",
"$u79e7313* X@i79e7w92;o . ,rat997999w7ww99qeew9607we07e9ww092*.X",
"#twe09-== .+#te79e974*X  .#uat999w9q90w79qwe7q9q9957qq9e7e9w1-Xo",
"@566;*-** XX+0qw7991,=o.   taiww7999697w907w0679w79w96395q993* X",
"#X . ;**;.X+$5<:,,>,**o . Xeip97e9e79e966007w9e99e786997w9472-.X",
"=;*#X.. .oX+XoXXXXXXXXX. . 9irw99w7e697q6q9q6w7969997e9699761-.X",
"#$#@#$@o..o$XX.  ... .   .X702331331w9ww795798599w7e99e7999q1-.X",
"#6wwew99,$$*XX  X. o .X X X*@XX.X.o.;31695656556566566666656,% X",
"#wyiapaarew92:;$XXXXXXXXoX+;@#XXXXXo $=*;*;=;=-=**-*;**;*;**= XX",
"#wiee9tiasarewweweeq997662<,%;@@#O#XX X o.o X.X X .. . ..  . .X+",
"@wawewrw9etaaapaiaiaaaauiutewewe7$=#XoXXXXoXX. X.X X.X o X.oXX#$",
"@waw7w56e096e7w9w9ww7e9eewupaipt7o#&$#@XXX XXXXXXXXXXXXXXXXX+#$*",
"#wywwe9w9990w79w639e6979w7w9eww6, X%$wpaq6$$#**=@#+@#@+@#+##%;**",
"#wue7w66qe7ew076w595q7e9e9w7we0<=.o##sweaaapt==$taaisaaipuwq6$#=",
"#e7<><><><,><:,,>,:,:,<:<>,><><-*X X#irererrt>-6aqee9w7eqe9wp0.=",
"@9,XooXXXXXXXXXXXXXooXoXXXXoooXXoX. $twrt0:07<@tw9e7eww7w9w7w*.;",
"#X.  .  . .  .  ... ... .. ..    . .%X#X%,:<,:$a0qqww9qeq0e99% -",
"=$XXX.X  X  X..o o  o..o..o..X. X X +%-oX ..  o*;****=;%*;=-&-.=",
"*-%=@##$$#$$XXXoXXXoXXXXoXXXXoXXXXXoX%-%*XXoXXX%= . .. ... ..  -",
"XoXXXXXXXXXXoooXoXoXXXXooXoXXXXXoXXXXXXoXXXXXXXXXXXooXXXXoXooXXX"
};
